packages/ingest-daemon/Resources/LUTs/arri_logc3_rec709.cube
LUT_3D_SIZE 5
0.00000000 0.00000000 0.00000000
0.16354977 0.00000000 0.00000000
0.71513516 0.00000000 0.00000000
1.00000000 0.00000000 0.00000000
1.00000000 0.00000000 0.00000000
0.00000000 0.16354977 0.00000000
0.16354977 0.16354977 0.00000000
0.71513516 0.16354977 0.00000000
1.00000000 0.16354977 0.00000000
1.00000000 0.16354977 0.00000000
0.00000000 0.71513516 0.00000000
0.16354977 0.71513516 0.00000000
0.71513516 0.71513516 0.00000000
1.00000000 0.71513516 0.00000000
1.00000000 0.71513516 0.00000000
0.00000000 1.00000000 0.00000000
0.16354977 1.00000000 0.00000000
0.71513516 1.00000000 0.00000000
1.00000000 1.00000000 0.00000000
1.00000000 1.00000000 0.00000000
0.00000000 1.00000000 0.00000000
0.16354977 1.00000000 0.00000000
0.71513516 1.00000000 0.00000000
1.00000000 1.00000000 0.00000000
1.00000000 1.00000000 0.00000000
0.00000000 0.00000000 0.16354977
0.16354977 0.00000000 0.16354977
0.71513516 0.00000000 0.16354977
1.00000000 0.00000000 0.16354977
1.00000000 0.00000000 0.16354977
0.00000000 0.16354977 0.16354977
0.16354977 0.16354977 0.16354977
0.71513516 0.16354977 0.16354977
1.00000000 0.16354977 0.16354977
1.00000000 0.16354977 0.16354977
0.00000000 0.71513516 0.16354977
0.16354977 0.71513516 0.16354977
0.71513516 0.71513516 0.16354977
1.00000000 0.71513516 0.16354977
1.00000000 0.71513516 0.16354977
0.00000000 1.00000000 0.16354977
0.16354977 1.00000000 0.16354977
0.71513516 1.00000000 0.16354977
1.00000000 1.00000000 0.16354977
1.00000000 1.00000000 0.16354977
0.00000000 1.00000000 0.16354977
0.16354977 1.00000000 0.16354977
0.71513516 1.00000000 0.16354977
1.00000000 1.00000000 0.16354977
1.00000000 1.00000000 0.16354977
0.00000000 0.00000000 0.71513516
0.16354977 0.00000000 0.71513516
0.71513516 0.00000000 0.71513516
1.00000000 0.00000000 0.71513516
1.00000000 0.00000000 0.71513516
0.00000000 0.16354977 0.71513516
0.16354977 0.16354977 0.71513516
0.71513516 0.16354977 0.71513516
1.00000000 0.16354977 0.71513516
1.00000000 0.16354977 0.71513516
0.00000000 0.71513516 0.71513516
0.16354977 0.71513516 0.71513516
0.71513516 0.71513516 0.71513516
1.00000000 0.71513516 0.71513516
1.00000000 0.71513516 0.71513516
0.00000000 1.00000000 0.71513516
0.16354977 1.00000000 0.71513516
0.71513516 1.00000000 0.71513516
1.00000000 1.00000000 0.71513516
1.00000000 1.00000000 0.71513516
0.00000000 1.00000000 0.71513516
0.16354977 1.00000000 0.71513516
0.71513516 1.00000000 0.71513516
1.00000000 1.00000000 0.71513516
1.00000000 1.00000000 0.71513516
0.00000000 0.00000000 1.00000000
0.16354977 0.00000000 1.00000000
0.71513516 0.00000000 1.00000000
1.00000000 0.00000000 1.00000000
1.00000000 0.00000000 1.00000000
0.00000000 0.16354977 1.00000000
0.16354977 0.16354977 1.00000000
0.71513516 0.16354977 1.00000000
1.00000000 0.16354977 1.00000000
1.00000000 0.16354977 1.00000000
0.00000000 0.71513516 1.00000000
0.16354977 0.71513516 1.00000000
0.71513516 0.71513516 1.00000000
1.00000000 0.71513516 1.00000000
1.00000000 0.71513516 1.00000000
0.00000000 1.00000000 1.00000000
0.16354977 1.00000000 1.00000000
0.71513516 1.00000000 1.00000000
1.00000000 1.00000000 1.00000000
1.00000000 1.00000000 1.00000000
0.00000000 1.00000000 1.00000000
0.16354977 1.00000000 1.00000000
0.71513516 1.00000000 1.00000000
1.00000000 1.00000000 1.00000000
1.00000000 1.00000000 1.00000000
0.00000000 0.00000000 1.00000000
0.16354977 0.00000000 1.00000000
0.71513516 0.00000000 1.00000000
1.00000000 0.00000000 1.00000000
1.00000000 0.00000000 1.00000000
0.00000000 0.16354977 1.00000000
0.16354977 0.16354977 1.00000000
0.71513516 0.16354977 1.00000000
1.00000000 0.16354977 1.00000000
1.00000000 0.16354977 1.00000000
0.00000000 0.71513516 1.00000000
0.16354977 0.71513516 1.00000000
0.71513516 0.71513516 1.00000000
1.00000000 0.71513516 1.00000000
1.00000000 0.71513516 1.00000000
0.00000000 1.00000000 1.00000000
0.16354977 1.00000000 1.00000000
0.71513516 1.00000000 1.00000000
1.00000000 1.00000000 1.00000000
1.00000000 1.00000000 1.00000000
0.00000000 1.00000000 1.00000000
0.16354977 1.00000000 1.00000000
0.71513516 1.00000000 1.00000000
1.00000000 1.00000000 1.00000000
1.00000000 1.00000000 1.00000000
