packages/ingest-daemon/Resources/LUTs/arri_logc3_rec709.cube
LUT_3D_SIZE 33
0.00000000 0.00000000 0.00000000
0.00000000 0.00000000 0.00000000
0.00000000 0.00000000 0.00000000
0.01112463 0.00000000 0.00000000
0.02918999 0.00000000 0.00000000
0.05335949 0.00000000 0.00000000
0.08587728 0.00000000 0.00000000
0.12320495 0.00000000 0.00000000
0.16354977 0.00000000 0.00000000
0.20788656 0.00000000 0.00000000
0.25713874 0.00000000 0.00000000
0.31225232 0.00000000 0.00000000
0.37423944 0.00000000 0.00000000
0.44420971 0.00000000 0.00000000
0.52339705 0.00000000 0.00000000
0.61318539 0.00000000 0.00000000
0.71513516 0.00000000 0.00000000
0.83101179 0.00000000 0.00000000
0.96281719 0.00000000 0.00000000
1.00000000 0.00000000 0.00000000
1.00000000 0.00000000 0.00000000
1.00000000 0.00000000 0.00000000
1.00000000 0.00000000 0.00000000
1.00000000 0.00000000 0.00000000
1.00000000 0.00000000 0.00000000
1.00000000 0.00000000 0.00000000
1.00000000 0.00000000 0.00000000
1.00000000 0.00000000 0.00000000
1.00000000 0.00000000 0.00000000
1.00000000 0.00000000 0.00000000
1.00000000 0.00000000 0.00000000
1.00000000 0.00000000 0.00000000
1.00000000 0.00000000 0.00000000
0.00000000 0.00000000 0.00000000
0.00000000 0.00000000 0.00000000
0.00000000 0.00000000 0.00000000
0.01112463 0.00000000 0.00000000
0.02918999 0.00000000 0.00000000
0.05335949 0.00000000 0.00000000
0.08587728 0.00000000 0.00000000
0.12320495 0.00000000 0.00000000
0.16354977 0.00000000 0.00000000
0.20788656 0.00000000 0.00000000
0.25713874 0.00000000 0.00000000
0.31225232 0.00000000 0.00000000
0.37423944 0.00000000 0.00000000
0.44420971 0.00000000 0.00000000
0.52339705 0.00000000 0.00000000
0.61318539 0.00000000 0.00000000
0.71513516 0.00000000 0.00000000
0.83101179 0.00000000 0.00000000
0.96281719 0.00000000 0.00000000
1.00000000 0.00000000 0.00000000
1.00000000 0.00000000 0.00000000
1.00000000 0.00000000 0.00000000
1.00000000 0.00000000 0.00000000
1.00000000 0.00000000 0.00000000
1.00000000 0.00000000 0.00000000
1.00000000 0.00000000 0.00000000
1.00000000 0.00000000 0.00000000
1.00000000 0.00000000 0.00000000
1.00000000 0.00000000 0.00000000
1.00000000 0.00000000 0.00000000
1.00000000 0.00000000 0.00000000
1.00000000 0.00000000 0.00000000
1.00000000 0.00000000 0.00000000
0.00000000 0.00000000 0.00000000
0.00000000 0.00000000 0.00000000
0.00000000 0.00000000 0.00000000
0.01112463 0.00000000 0.00000000
0.02918999 0.00000000 0.00000000
0.05335949 0.00000000 0.00000000
0.08587728 0.00000000 0.00000000
0.12320495 0.00000000 0.00000000
0.16354977 0.00000000 0.00000000
0.20788656 0.00000000 0.00000000
0.25713874 0.00000000 0.00000000
0.31225232 0.00000000 0.00000000
0.37423944 0.00000000 0.00000000
0.44420971 0.00000000 0.00000000
0.52339705 0.00000000 0.00000000
0.61318539 0.00000000 0.00000000
0.71513516 0.00000000 0.00000000
0.83101179 0.00000000 0.00000000
0.96281719 0.00000000 0.00000000
1.00000000 0.00000000 0.00000000
1.00000000 0.00000000 0.00000000
1.00000000 0.00000000 0.00000000
1.00000000 0.00000000 0.00000000
1.00000000 0.00000000 0.00000000
1.00000000 0.00000000 0.00000000
1.00000000 0.00000000 0.00000000
1.00000000 0.00000000 0.00000000
1.00000000 0.00000000 0.00000000
1.00000000 0.00000000 0.00000000
1.00000000 0.00000000 0.00000000
1.00000000 0.00000000 0.00000000
1.00000000 0.00000000 0.00000000
1.00000000 0.00000000 0.00000000
0.00000000 0.01112463 0.00000000
0.00000000 0.01112463 0.00000000
0.00000000 0.01112463 0.00000000
0.01112463 0.01112463 0.00000000
0.02918999 0.01112463 0.00000000
0.05335949 0.01112463 0.00000000
0.08587728 0.01112463 0.00000000
0.12320495 0.01112463 0.00000000
0.16354977 0.01112463 0.00000000
0.20788656 0.01112463 0.00000000
0.25713874 0.01112463 0.00000000
0.31225232 0.01112463 0.00000000
0.37423944 0.01112463 0.00000000
0.44420971 0.01112463 0.00000000
0.52339705 0.01112463 0.00000000
0.61318539 0.01112463 0.00000000
0.71513516 0.01112463 0.00000000
0.83101179 0.01112463 0.00000000
0.96281719 0.01112463 0.00000000
1.00000000 0.01112463 0.00000000
1.00000000 0.01112463 0.00000000
1.00000000 0.01112463 0.00000000
1.00000000 0.01112463 0.00000000
1.00000000 0.01112463 0.00000000
1.00000000 0.01112463 0.00000000
1.00000000 0.01112463 0.00000000
1.00000000 0.01112463 0.00000000
1.00000000 0.01112463 0.00000000
1.00000000 0.01112463 0.00000000
1.00000000 0.01112463 0.00000000
1.00000000 0.01112463 0.00000000
1.00000000 0.01112463 0.00000000
1.00000000 0.01112463 0.00000000
0.00000000 0.02918999 0.00000000
0.00000000 0.02918999 0.00000000
0.00000000 0.02918999 0.00000000
0.01112463 0.02918999 0.00000000
0.02918999 0.02918999 0.00000000
0.05335949 0.02918999 0.00000000
0.08587728 0.02918999 0.00000000
0.12320495 0.02918999 0.00000000
0.16354977 0.02918999 0.00000000
0.20788656 0.02918999 0.00000000
0.25713874 0.02918999 0.00000000
0.31225232 0.02918999 0.00000000
0.37423944 0.02918999 0.00000000
0.44420971 0.02918999 0.00000000
0.52339705 0.02918999 0.00000000
0.61318539 0.02918999 0.00000000
0.71513516 0.02918999 0.00000000
0.83101179 0.02918999 0.00000000
0.96281719 0.02918999 0.00000000
1.00000000 0.02918999 0.00000000
1.00000000 0.02918999 0.00000000
1.00000000 0.02918999 0.00000000
1.00000000 0.02918999 0.00000000
1.00000000 0.02918999 0.00000000
1.00000000 0.02918999 0.00000000
1.00000000 0.02918999 0.00000000
1.00000000 0.02918999 0.00000000
1.00000000 0.02918999 0.00000000
1.00000000 0.02918999 0.00000000
1.00000000 0.02918999 0.00000000
1.00000000 0.02918999 0.00000000
1.00000000 0.02918999 0.00000000
1.00000000 0.02918999 0.00000000
0.00000000 0.05335949 0.00000000
0.00000000 0.05335949 0.00000000
0.00000000 0.05335949 0.00000000
0.01112463 0.05335949 0.00000000
0.02918999 0.05335949 0.00000000
0.05335949 0.05335949 0.00000000
0.08587728 0.05335949 0.00000000
0.12320495 0.05335949 0.00000000
0.16354977 0.05335949 0.00000000
0.20788656 0.05335949 0.00000000
0.25713874 0.05335949 0.00000000
0.31225232 0.05335949 0.00000000
0.37423944 0.05335949 0.00000000
0.44420971 0.05335949 0.00000000
0.52339705 0.05335949 0.00000000
0.61318539 0.05335949 0.00000000
0.71513516 0.05335949 0.00000000
0.83101179 0.05335949 0.00000000
0.96281719 0.05335949 0.00000000
1.00000000 0.05335949 0.00000000
1.00000000 0.05335949 0.00000000
1.00000000 0.05335949 0.00000000
1.00000000 0.05335949 0.00000000
1.00000000 0.05335949 0.00000000
1.00000000 0.05335949 0.00000000
1.00000000 0.05335949 0.00000000
1.00000000 0.05335949 0.00000000
1.00000000 0.05335949 0.00000000
1.00000000 0.05335949 0.00000000
1.00000000 0.05335949 0.00000000
1.00000000 0.05335949 0.00000000
1.00000000 0.05335949 0.00000000
1.00000000 0.05335949 0.00000000
0.00000000 0.08587728 0.00000000
0.00000000 0.08587728 0.00000000
0.00000000 0.08587728 0.00000000
0.01112463 0.08587728 0.00000000
0.02918999 0.08587728 0.00000000
0.05335949 0.08587728 0.00000000
0.08587728 0.08587728 0.00000000
0.12320495 0.08587728 0.00000000
0.16354977 0.08587728 0.00000000
0.20788656 0.08587728 0.00000000
0.25713874 0.08587728 0.00000000
0.31225232 0.08587728 0.00000000
0.37423944 0.08587728 0.00000000
0.44420971 0.08587728 0.00000000
0.52339705 0.08587728 0.00000000
0.61318539 0.08587728 0.00000000
0.71513516 0.08587728 0.00000000
0.83101179 0.08587728 0.00000000
0.96281719 0.08587728 0.00000000
1.00000000 0.08587728 0.00000000
1.00000000 0.08587728 0.00000000
1.00000000 0.08587728 0.00000000
1.00000000 0.08587728 0.00000000
1.00000000 0.08587728 0.00000000
1.00000000 0.08587728 0.00000000
1.00000000 0.08587728 0.00000000
1.00000000 0.08587728 0.00000000
1.00000000 0.08587728 0.00000000
1.00000000 0.08587728 0.00000000
1.00000000 0.08587728 0.00000000
1.00000000 0.08587728 0.00000000
1.00000000 0.08587728 0.00000000
1.00000000 0.08587728 0.00000000
0.00000000 0.12320495 0.00000000
0.00000000 0.12320495 0.00000000
0.00000000 0.12320495 0.00000000
0.01112463 0.12320495 0.00000000
0.02918999 0.12320495 0.00000000
0.05335949 0.12320495 0.00000000
0.08587728 0.12320495 0.00000000
0.12320495 0.12320495 0.00000000
0.16354977 0.12320495 0.00000000
0.20788656 0.12320495 0.00000000
0.25713874 0.12320495 0.00000000
0.31225232 0.12320495 0.00000000
0.37423944 0.12320495 0.00000000
0.44420971 0.12320495 0.00000000
0.52339705 0.12320495 0.00000000
0.61318539 0.12320495 0.00000000
0.71513516 0.12320495 0.00000000
0.83101179 0.12320495 0.00000000
0.96281719 0.12320495 0.00000000
1.00000000 0.12320495 0.00000000
1.00000000 0.12320495 0.00000000
1.00000000 0.12320495 0.00000000
1.00000000 0.12320495 0.00000000
1.00000000 0.12320495 0.00000000
1.00000000 0.12320495 0.00000000
1.00000000 0.12320495 0.00000000
1.00000000 0.12320495 0.00000000
1.00000000 0.12320495 0.00000000
1.00000000 0.12320495 0.00000000
1.00000000 0.12320495 0.00000000
1.00000000 0.12320495 0.00000000
1.00000000 0.12320495 0.00000000
1.00000000 0.12320495 0.00000000
0.00000000 0.16354977 0.00000000
0.00000000 0.16354977 0.00000000
0.00000000 0.16354977 0.00000000
0.01112463 0.16354977 0.00000000
0.02918999 0.16354977 0.00000000
0.05335949 0.16354977 0.00000000
0.08587728 0.16354977 0.00000000
0.12320495 0.16354977 0.00000000
0.16354977 0.16354977 0.00000000
0.20788656 0.16354977 0.00000000
0.25713874 0.16354977 0.00000000
0.31225232 0.16354977 0.00000000
0.37423944 0.16354977 0.00000000
0.44420971 0.16354977 0.00000000
0.52339705 0.16354977 0.00000000
0.61318539 0.16354977 0.00000000
0.71513516 0.16354977 0.00000000
0.83101179 0.16354977 0.00000000
0.96281719 0.16354977 0.00000000
1.00000000 0.16354977 0.00000000
1.00000000 0.16354977 0.00000000
1.00000000 0.16354977 0.00000000
1.00000000 0.16354977 0.00000000
1.00000000 0.16354977 0.00000000
1.00000000 0.16354977 0.00000000
1.00000000 0.16354977 0.00000000
1.00000000 0.16354977 0.00000000
1.00000000 0.16354977 0.00000000
1.00000000 0.16354977 0.00000000
1.00000000 0.16354977 0.00000000
1.00000000 0.16354977 0.00000000
1.00000000 0.16354977 0.00000000
1.00000000 0.16354977 0.00000000
0.00000000 0.20788656 0.00000000
0.00000000 0.20788656 0.00000000
0.00000000 0.20788656 0.00000000
0.01112463 0.20788656 0.00000000
0.02918999 0.20788656 0.00000000
0.05335949 0.20788656 0.00000000
0.08587728 0.20788656 0.00000000
0.12320495 0.20788656 0.00000000
0.16354977 0.20788656 0.00000000
0.20788656 0.20788656 0.00000000
0.25713874 0.20788656 0.00000000
0.31225232 0.20788656 0.00000000
0.37423944 0.20788656 0.00000000
0.44420971 0.20788656 0.00000000
0.52339705 0.20788656 0.00000000
0.61318539 0.20788656 0.00000000
0.71513516 0.20788656 0.00000000
0.83101179 0.20788656 0.00000000
0.96281719 0.20788656 0.00000000
1.00000000 0.20788656 0.00000000
1.00000000 0.20788656 0.00000000
1.00000000 0.20788656 0.00000000
1.00000000 0.20788656 0.00000000
1.00000000 0.20788656 0.00000000
1.00000000 0.20788656 0.00000000
1.00000000 0.20788656 0.00000000
1.00000000 0.20788656 0.00000000
1.00000000 0.20788656 0.00000000
1.00000000 0.20788656 0.00000000
1.00000000 0.20788656 0.00000000
1.00000000 0.20788656 0.00000000
1.00000000 0.20788656 0.00000000
1.00000000 0.20788656 0.00000000
0.00000000 0.25713874 0.00000000
0.00000000 0.25713874 0.00000000
0.00000000 0.25713874 0.00000000
0.01112463 0.25713874 0.00000000
0.02918999 0.25713874 0.00000000
0.05335949 0.25713874 0.00000000
0.08587728 0.25713874 0.00000000
0.12320495 0.25713874 0.00000000
0.16354977 0.25713874 0.00000000
0.20788656 0.25713874 0.00000000
0.25713874 0.25713874 0.00000000
0.31225232 0.25713874 0.00000000
0.37423944 0.25713874 0.00000000
0.44420971 0.25713874 0.00000000
0.52339705 0.25713874 0.00000000
0.61318539 0.25713874 0.00000000
0.71513516 0.25713874 0.00000000
0.83101179 0.25713874 0.00000000
0.96281719 0.25713874 0.00000000
1.00000000 0.25713874 0.00000000
1.00000000 0.25713874 0.00000000
1.00000000 0.25713874 0.00000000
1.00000000 0.25713874 0.00000000
1.00000000 0.25713874 0.00000000
1.00000000 0.25713874 0.00000000
1.00000000 0.25713874 0.00000000
1.00000000 0.25713874 0.00000000
1.00000000 0.25713874 0.00000000
1.00000000 0.25713874 0.00000000
1.00000000 0.25713874 0.00000000
1.00000000 0.25713874 0.00000000
1.00000000 0.25713874 0.00000000
1.00000000 0.25713874 0.00000000
0.00000000 0.31225232 0.00000000
0.00000000 0.31225232 0.00000000
0.00000000 0.31225232 0.00000000
0.01112463 0.31225232 0.00000000
0.02918999 0.31225232 0.00000000
0.05335949 0.31225232 0.00000000
0.08587728 0.31225232 0.00000000
0.12320495 0.31225232 0.00000000
0.16354977 0.31225232 0.00000000
0.20788656 0.31225232 0.00000000
0.25713874 0.31225232 0.00000000
0.31225232 0.31225232 0.00000000
0.37423944 0.31225232 0.00000000
0.44420971 0.31225232 0.00000000
0.52339705 0.31225232 0.00000000
0.61318539 0.31225232 0.00000000
0.71513516 0.31225232 0.00000000
0.83101179 0.31225232 0.00000000
0.96281719 0.31225232 0.00000000
1.00000000 0.31225232 0.00000000
1.00000000 0.31225232 0.00000000
1.00000000 0.31225232 0.00000000
1.00000000 0.31225232 0.00000000
1.00000000 0.31225232 0.00000000
1.00000000 0.31225232 0.00000000
1.00000000 0.31225232 0.00000000
1.00000000 0.31225232 0.00000000
1.00000000 0.31225232 0.00000000
1.00000000 0.31225232 0.00000000
1.00000000 0.31225232 0.00000000
1.00000000 0.31225232 0.00000000
1.00000000 0.31225232 0.00000000
1.00000000 0.31225232 0.00000000
0.00000000 0.37423944 0.00000000
0.00000000 0.37423944 0.00000000
0.00000000 0.37423944 0.00000000
0.01112463 0.37423944 0.00000000
0.02918999 0.37423944 0.00000000
0.05335949 0.37423944 0.00000000
0.08587728 0.37423944 0.00000000
0.12320495 0.37423944 0.00000000
0.16354977 0.37423944 0.00000000
0.20788656 0.37423944 0.00000000
0.25713874 0.37423944 0.00000000
0.31225232 0.37423944 0.00000000
0.37423944 0.37423944 0.00000000
0.44420971 0.37423944 0.00000000
0.52339705 0.37423944 0.00000000
0.61318539 0.37423944 0.00000000
0.71513516 0.37423944 0.00000000
0.83101179 0.37423944 0.00000000
0.96281719 0.37423944 0.00000000
1.00000000 0.37423944 0.00000000
1.00000000 0.37423944 0.00000000
1.00000000 0.37423944 0.00000000
1.00000000 0.37423944 0.00000000
1.00000000 0.37423944 0.00000000
1.00000000 0.37423944 0.00000000
1.00000000 0.37423944 0.00000000
1.00000000 0.37423944 0.00000000
1.00000000 0.37423944 0.00000000
1.00000000 0.37423944 0.00000000
1.00000000 0.37423944 0.00000000
1.00000000 0.37423944 0.00000000
1.00000000 0.37423944 0.00000000
1.00000000 0.37423944 0.00000000
0.00000000 0.44420971 0.00000000
0.00000000 0.44420971 0.00000000
0.00000000 0.44420971 0.00000000
0.01112463 0.44420971 0.00000000
0.02918999 0.44420971 0.00000000
0.05335949 0.44420971 0.00000000
0.08587728 0.44420971 0.00000000
0.12320495 0.44420971 0.00000000
0.16354977 0.44420971 0.00000000
0.20788656 0.44420971 0.00000000
0.25713874 0.44420971 0.00000000
0.31225232 0.44420971 0.00000000
0.37423944 0.44420971 0.00000000
0.44420971 0.44420971 0.00000000
0.52339705 0.44420971 0.00000000
0.61318539 0.44420971 0.00000000
0.71513516 0.44420971 0.00000000
0.83101179 0.44420971 0.00000000
0.96281719 0.44420971 0.00000000
1.00000000 0.44420971 0.00000000
1.00000000 0.44420971 0.00000000
1.00000000 0.44420971 0.00000000
1.00000000 0.44420971 0.00000000
1.00000000 0.44420971 0.00000000
1.00000000 0.44420971 0.00000000
1.00000000 0.44420971 0.00000000
1.00000000 0.44420971 0.00000000
1.00000000 0.44420971 0.00000000
1.00000000 0.44420971 0.00000000
1.00000000 0.44420971 0.00000000
1.00000000 0.44420971 0.00000000
1.00000000 0.44420971 0.00000000
1.00000000 0.44420971 0.00000000
0.00000000 0.52339705 0.00000000
0.00000000 0.52339705 0.00000000
0.00000000 0.52339705 0.00000000
0.01112463 0.52339705 0.00000000
0.02918999 0.52339705 0.00000000
0.05335949 0.52339705 0.00000000
0.08587728 0.52339705 0.00000000
0.12320495 0.52339705 0.00000000
0.16354977 0.52339705 0.00000000
0.20788656 0.52339705 0.00000000
0.25713874 0.52339705 0.00000000
0.31225232 0.52339705 0.00000000
0.37423944 0.52339705 0.00000000
0.44420971 0.52339705 0.00000000
0.52339705 0.52339705 0.00000000
0.61318539 0.52339705 0.00000000
0.71513516 0.52339705 0.00000000
0.83101179 0.52339705 0.00000000
0.96281719 0.52339705 0.00000000
1.00000000 0.52339705 0.00000000
1.00000000 0.52339705 0.00000000
1.00000000 0.52339705 0.00000000
1.00000000 0.52339705 0.00000000
1.00000000 0.52339705 0.00000000
1.00000000 0.52339705 0.00000000
1.00000000 0.52339705 0.00000000
1.00000000 0.52339705 0.00000000
1.00000000 0.52339705 0.00000000
1.00000000 0.52339705 0.00000000
1.00000000 0.52339705 0.00000000
1.00000000 0.52339705 0.00000000
1.00000000 0.52339705 0.00000000
1.00000000 0.52339705 0.00000000
0.00000000 0.61318539 0.00000000
0.00000000 0.61318539 0.00000000
0.00000000 0.61318539 0.00000000
0.01112463 0.61318539 0.00000000
0.02918999 0.61318539 0.00000000
0.05335949 0.61318539 0.00000000
0.08587728 0.61318539 0.00000000
0.12320495 0.61318539 0.00000000
0.16354977 0.61318539 0.00000000
0.20788656 0.61318539 0.00000000
0.25713874 0.61318539 0.00000000
0.31225232 0.61318539 0.00000000
0.37423944 0.61318539 0.00000000
0.44420971 0.61318539 0.00000000
0.52339705 0.61318539 0.00000000
0.61318539 0.61318539 0.00000000
0.71513516 0.61318539 0.00000000
0.83101179 0.61318539 0.00000000
0.96281719 0.61318539 0.00000000
1.00000000 0.61318539 0.00000000
1.00000000 0.61318539 0.00000000
1.00000000 0.61318539 0.00000000
1.00000000 0.61318539 0.00000000
1.00000000 0.61318539 0.00000000
1.00000000 0.61318539 0.00000000
1.00000000 0.61318539 0.00000000
1.00000000 0.61318539 0.00000000
1.00000000 0.61318539 0.00000000
1.00000000 0.61318539 0.00000000
1.00000000 0.61318539 0.00000000
1.00000000 0.61318539 0.00000000
1.00000000 0.61318539 0.00000000
1.00000000 0.61318539 0.00000000
0.00000000 0.71513516 0.00000000
0.00000000 0.71513516 0.00000000
0.00000000 0.71513516 0.00000000
0.01112463 0.71513516 0.00000000
0.02918999 0.71513516 0.00000000
0.05335949 0.71513516 0.00000000
0.08587728 0.71513516 0.00000000
0.12320495 0.71513516 0.00000000
0.16354977 0.71513516 0.00000000
0.20788656 0.71513516 0.00000000
0.25713874 0.71513516 0.00000000
0.31225232 0.71513516 0.00000000
0.37423944 0.71513516 0.00000000
0.44420971 0.71513516 0.00000000
0.52339705 0.71513516 0.00000000
0.61318539 0.71513516 0.00000000
0.71513516 0.71513516 0.00000000
0.83101179 0.71513516 0.00000000
0.96281719 0.71513516 0.00000000
1.00000000 0.71513516 0.00000000
1.00000000 0.71513516 0.00000000
1.00000000 0.71513516 0.00000000
1.00000000 0.71513516 0.00000000
1.00000000 0.71513516 0.00000000
1.00000000 0.71513516 0.00000000
1.00000000 0.71513516 0.00000000
1.00000000 0.71513516 0.00000000
1.00000000 0.71513516 0.00000000
1.00000000 0.71513516 0.00000000
1.00000000 0.71513516 0.00000000
1.00000000 0.71513516 0.00000000
1.00000000 0.71513516 0.00000000
1.00000000 0.71513516 0.00000000
0.00000000 0.83101179 0.00000000
0.00000000 0.83101179 0.00000000
0.00000000 0.83101179 0.00000000
0.01112463 0.83101179 0.00000000
0.02918999 0.83101179 0.00000000
0.05335949 0.83101179 0.00000000
0.08587728 0.83101179 0.00000000
0.12320495 0.83101179 0.00000000
0.16354977 0.83101179 0.00000000
0.20788656 0.83101179 0.00000000
0.25713874 0.83101179 0.00000000
0.31225232 0.83101179 0.00000000
0.37423944 0.83101179 0.00000000
0.44420971 0.83101179 0.00000000
0.52339705 0.83101179 0.00000000
0.61318539 0.83101179 0.00000000
0.71513516 0.83101179 0.00000000
0.83101179 0.83101179 0.00000000
0.96281719 0.83101179 0.00000000
1.00000000 0.83101179 0.00000000
1.00000000 0.83101179 0.00000000
1.00000000 0.83101179 0.00000000
1.00000000 0.83101179 0.00000000
1.00000000 0.83101179 0.00000000
1.00000000 0.83101179 0.00000000
1.00000000 0.83101179 0.00000000
1.00000000 0.83101179 0.00000000
1.00000000 0.83101179 0.00000000
1.00000000 0.83101179 0.00000000
1.00000000 0.83101179 0.00000000
1.00000000 0.83101179 0.00000000
1.00000000 0.83101179 0.00000000
1.00000000 0.83101179 0.00000000
0.00000000 0.96281719 0.00000000
0.00000000 0.96281719 0.00000000
0.00000000 0.96281719 0.00000000
0.01112463 0.96281719 0.00000000
0.02918999 0.96281719 0.00000000
0.05335949 0.96281719 0.00000000
0.08587728 0.96281719 0.00000000
0.12320495 0.96281719 0.00000000
0.16354977 0.96281719 0.00000000
0.20788656 0.96281719 0.00000000
0.25713874 0.96281719 0.00000000
0.31225232 0.96281719 0.00000000
0.37423944 0.96281719 0.00000000
0.44420971 0.96281719 0.00000000
0.52339705 0.96281719 0.00000000
0.61318539 0.96281719 0.00000000
0.71513516 0.96281719 0.00000000
0.83101179 0.96281719 0.00000000
0.96281719 0.96281719 0.00000000
1.00000000 0.96281719 0.00000000
1.00000000 0.96281719 0.00000000
1.00000000 0.96281719 0.00000000
1.00000000 0.96281719 0.00000000
1.00000000 0.96281719 0.00000000
1.00000000 0.96281719 0.00000000
1.00000000 0.96281719 0.00000000
1.00000000 0.96281719 0.00000000
1.00000000 0.96281719 0.00000000
1.00000000 0.96281719 0.00000000
1.00000000 0.96281719 0.00000000
1.00000000 0.96281719 0.00000000
1.00000000 0.96281719 0.00000000
1.00000000 0.96281719 0.00000000
0.00000000 1.00000000 0.00000000
0.00000000 1.00000000 0.00000000
0.00000000 1.00000000 0.00000000
0.01112463 1.00000000 0.00000000
0.02918999 1.00000000 0.00000000
0.05335949 1.00000000 0.00000000
0.08587728 1.00000000 0.00000000
0.12320495 1.00000000 0.00000000
0.16354977 1.00000000 0.00000000
0.20788656 1.00000000 0.00000000
0.25713874 1.00000000 0.00000000
0.31225232 1.00000000 0.00000000
0.37423944 1.00000000 0.00000000
0.44420971 1.00000000 0.00000000
0.52339705 1.00000000 0.00000000
0.61318539 1.00000000 0.00000000
0.71513516 1.00000000 0.00000000
0.83101179 1.00000000 0.00000000
0.96281719 1.00000000 0.00000000
1.00000000 1.00000000 0.00000000
1.00000000 1.00000000 0.00000000
1.00000000 1.00000000 0.00000000
1.00000000 1.00000000 0.00000000
1.00000000 1.00000000 0.00000000
1.00000000 1.00000000 0.00000000
1.00000000 1.00000000 0.00000000
1.00000000 1.00000000 0.00000000
1.00000000 1.00000000 0.00000000
1.00000000 1.00000000 0.00000000
1.00000000 1.00000000 0.00000000
1.00000000 1.00000000 0.00000000
1.00000000 1.00000000 0.00000000
1.00000000 1.00000000 0.00000000
0.00000000 1.00000000 0.00000000
0.00000000 1.00000000 0.00000000
0.00000000 1.00000000 0.00000000
0.01112463 1.00000000 0.00000000
0.02918999 1.00000000 0.00000000
0.05335949 1.00000000 0.00000000
0.08587728 1.00000000 0.00000000
0.12320495 1.00000000 0.00000000
0.16354977 1.00000000 0.00000000
0.20788656 1.00000000 0.00000000
0.25713874 1.00000000 0.00000000
0.31225232 1.00000000 0.00000000
0.37423944 1.00000000 0.00000000
0.44420971 1.00000000 0.00000000
0.52339705 1.00000000 0.00000000
0.61318539 1.00000000 0.00000000
0.71513516 1.00000000 0.00000000
0.83101179 1.00000000 0.00000000
0.96281719 1.00000000 0.00000000
1.00000000 1.00000000 0.00000000
1.00000000 1.00000000 0.00000000
1.00000000 1.00000000 0.00000000
1.00000000 1.00000000 0.00000000
1.00000000 1.00000000 0.00000000
1.00000000 1.00000000 0.00000000
1.00000000 1.00000000 0.00000000
1.00000000 1.00000000 0.00000000
1.00000000 1.00000000 0.00000000
1.00000000 1.00000000 0.00000000
1.00000000 1.00000000 0.00000000
1.00000000 1.00000000 0.00000000
1.00000000 1.00000000 0.00000000
1.00000000 1.00000000 0.00000000
0.00000000 1.00000000 0.00000000
0.00000000 1.00000000 0.00000000
0.00000000 1.00000000 0.00000000
0.01112463 1.00000000 0.00000000
0.02918999 1.00000000 0.00000000
0.05335949 1.00000000 0.00000000
0.08587728 1.00000000 0.00000000
0.12320495 1.00000000 0.00000000
0.16354977 1.00000000 0.00000000
0.20788656 1.00000000 0.00000000
0.25713874 1.00000000 0.00000000
0.31225232 1.00000000 0.00000000
0.37423944 1.00000000 0.00000000
0.44420971 1.00000000 0.00000000
0.52339705 1.00000000 0.00000000
0.61318539 1.00000000 0.00000000
0.71513516 1.00000000 0.00000000
0.83101179 1.00000000 0.00000000
0.96281719 1.00000000 0.00000000
1.00000000 1.00000000 0.00000000
1.00000000 1.00000000 0.00000000
1.00000000 1.00000000 0.00000000
1.00000000 1.00000000 0.00000000
1.00000000 1.00000000 0.00000000
1.00000000 1.00000000 0.00000000
1.00000000 1.00000000 0.00000000
1.00000000 1.00000000 0.00000000
1.00000000 1.00000000 0.00000000
1.00000000 1.00000000 0.00000000
1.00000000 1.00000000 0.00000000
1.00000000 1.00000000 0.00000000
1.00000000 1.00000000 0.00000000
1.00000000 1.00000000 0.00000000
