packages/ingest-daemon/Resources/LUTs/arri_logc3_rec709.cube
LUT_3D_SIZE 9
0.00000000 0.00000000 0.00000000
0.02918999 0.00000000 0.00000000
0.16354977 0.00000000 0.00000000
0.37423944 0.00000000 0.00000000
0.71513516 0.00000000 0.00000000
1.00000000 0.00000000 0.00000000
1.00000000 0.00000000 0.00000000
1.00000000 0.00000000 0.00000000
1.00000000 0.00000000 0.00000000
0.00000000 0.02918999 0.00000000
0.02918999 0.02918999 0.00000000
0.16354977 0.02918999 0.00000000
0.37423944 0.02918999 0.00000000
0.71513516 0.02918999 0.00000000
1.00000000 0.02918999 0.00000000
1.00000000 0.02918999 0.00000000
1.00000000 0.02918999 0.00000000
1.00000000 0.02918999 0.00000000
0.00000000 0.16354977 0.00000000
0.02918999 0.16354977 0.00000000
0.16354977 0.16354977 0.00000000
0.37423944 0.16354977 0.00000000
0.71513516 0.16354977 0.00000000
1.00000000 0.16354977 0.00000000
1.00000000 0.16354977 0.00000000
1.00000000 0.16354977 0.00000000
1.00000000 0.16354977 0.00000000
0.00000000 0.37423944 0.00000000
0.02918999 0.37423944 0.00000000
0.16354977 0.37423944 0.00000000
0.37423944 0.37423944 0.00000000
0.71513516 0.37423944 0.00000000
1.00000000 0.37423944 0.00000000
1.00000000 0.37423944 0.00000000
1.00000000 0.37423944 0.00000000
1.00000000 0.37423944 0.00000000
0.00000000 0.71513516 0.00000000
0.02918999 0.71513516 0.00000000
0.16354977 0.71513516 0.00000000
0.37423944 0.71513516 0.00000000
0.71513516 0.71513516 0.00000000
1.00000000 0.71513516 0.00000000
1.00000000 0.71513516 0.00000000
1.00000000 0.71513516 0.00000000
1.00000000 0.71513516 0.00000000
0.00000000 1.00000000 0.00000000
0.02918999 1.00000000 0.00000000
0.16354977 1.00000000 0.00000000
0.37423944 1.00000000 0.00000000
0.71513516 1.00000000 0.00000000
1.00000000 1.00000000 0.00000000
1.00000000 1.00000000 0.00000000
1.00000000 1.00000000 0.00000000
1.00000000 1.00000000 0.00000000
0.00000000 1.00000000 0.00000000
0.02918999 1.00000000 0.00000000
0.16354977 1.00000000 0.00000000
0.37423944 1.00000000 0.00000000
0.71513516 1.00000000 0.00000000
1.00000000 1.00000000 0.00000000
1.00000000 1.00000000 0.00000000
1.00000000 1.00000000 0.00000000
1.00000000 1.00000000 0.00000000
0.00000000 1.00000000 0.00000000
0.02918999 1.00000000 0.00000000
0.16354977 1.00000000 0.00000000
0.37423944 1.00000000 0.00000000
0.71513516 1.00000000 0.00000000
1.00000000 1.00000000 0.00000000
1.00000000 1.00000000 0.00000000
1.00000000 1.00000000 0.00000000
1.00000000 1.00000000 0.00000000
0.00000000 1.00000000 0.00000000
0.02918999 1.00000000 0.00000000
0.16354977 1.00000000 0.00000000
0.37423944 1.00000000 0.00000000
0.71513516 1.00000000 0.00000000
1.00000000 1.00000000 0.00000000
1.00000000 1.00000000 0.00000000
1.00000000 1.00000000 0.00000000
1.00000000 1.00000000 0.00000000
0.00000000 0.00000000 0.02918999
0.02918999 0.00000000 0.02918999
0.16354977 0.00000000 0.02918999
0.37423944 0.00000000 0.02918999
0.71513516 0.00000000 0.02918999
1.00000000 0.00000000 0.02918999
1.00000000 0.00000000 0.02918999
1.00000000 0.00000000 0.02918999
1.00000000 0.00000000 0.02918999
0.00000000 0.02918999 0.02918999
0.02918999 0.02918999 0.02918999
0.16354977 0.02918999 0.02918999
0.37423944 0.02918999 0.02918999
0.71513516 0.02918999 0.02918999
1.00000000 0.02918999 0.02918999
1.00000000 0.02918999 0.02918999
1.00000000 0.02918999 0.02918999
1.00000000 0.02918999 0.02918999
0.00000000 0.16354977 0.02918999
0.02918999 0.16354977 0.02918999
0.16354977 0.16354977 0.02918999
0.37423944 0.16354977 0.02918999
0.71513516 0.16354977 0.02918999
1.00000000 0.16354977 0.02918999
1.00000000 0.16354977 0.02918999
1.00000000 0.16354977 0.02918999
1.00000000 0.16354977 0.02918999
0.00000000 0.37423944 0.02918999
0.02918999 0.37423944 0.02918999
0.16354977 0.37423944 0.02918999
0.37423944 0.37423944 0.02918999
0.71513516 0.37423944 0.02918999
1.00000000 0.37423944 0.02918999
1.00000000 0.37423944 0.02918999
1.00000000 0.37423944 0.02918999
1.00000000 0.37423944 0.02918999
0.00000000 0.71513516 0.02918999
0.02918999 0.71513516 0.02918999
0.16354977 0.71513516 0.02918999
0.37423944 0.71513516 0.02918999
0.71513516 0.71513516 0.02918999
1.00000000 0.71513516 0.02918999
1.00000000 0.71513516 0.02918999
1.00000000 0.71513516 0.02918999
1.00000000 0.71513516 0.02918999
0.00000000 1.00000000 0.02918999
0.02918999 1.00000000 0.02918999
0.16354977 1.00000000 0.02918999
0.37423944 1.00000000 0.02918999
0.71513516 1.00000000 0.02918999
1.00000000 1.00000000 0.02918999
1.00000000 1.00000000 0.02918999
1.00000000 1.00000000 0.02918999
1.00000000 1.00000000 0.02918999
0.00000000 1.00000000 0.02918999
0.02918999 1.00000000 0.02918999
0.16354977 1.00000000 0.02918999
0.37423944 1.00000000 0.02918999
0.71513516 1.00000000 0.02918999
1.00000000 1.00000000 0.02918999
1.00000000 1.00000000 0.02918999
1.00000000 1.00000000 0.02918999
1.00000000 1.00000000 0.02918999
0.00000000 1.00000000 0.02918999
0.02918999 1.00000000 0.02918999
0.16354977 1.00000000 0.02918999
0.37423944 1.00000000 0.02918999
0.71513516 1.00000000 0.02918999
1.00000000 1.00000000 0.02918999
1.00000000 1.00000000 0.02918999
1.00000000 1.00000000 0.02918999
1.00000000 1.00000000 0.02918999
0.00000000 1.00000000 0.02918999
0.02918999 1.00000000 0.02918999
0.16354977 1.00000000 0.02918999
0.37423944 1.00000000 0.02918999
0.71513516 1.00000000 0.02918999
1.00000000 1.00000000 0.02918999
1.00000000 1.00000000 0.02918999
1.00000000 1.00000000 0.02918999
1.00000000 1.00000000 0.02918999
0.00000000 0.00000000 0.16354977
0.02918999 0.00000000 0.16354977
0.16354977 0.00000000 0.16354977
0.37423944 0.00000000 0.16354977
0.71513516 0.00000000 0.16354977
1.00000000 0.00000000 0.16354977
1.00000000 0.00000000 0.16354977
1.00000000 0.00000000 0.16354977
1.00000000 0.00000000 0.16354977
0.00000000 0.02918999 0.16354977
0.02918999 0.02918999 0.16354977
0.16354977 0.02918999 0.16354977
0.37423944 0.02918999 0.16354977
0.71513516 0.02918999 0.16354977
1.00000000 0.02918999 0.16354977
1.00000000 0.02918999 0.16354977
1.00000000 0.02918999 0.16354977
1.00000000 0.02918999 0.16354977
0.00000000 0.16354977 0.16354977
0.02918999 0.16354977 0.16354977
0.16354977 0.16354977 0.16354977
0.37423944 0.16354977 0.16354977
0.71513516 0.16354977 0.16354977
1.00000000 0.16354977 0.16354977
1.00000000 0.16354977 0.16354977
1.00000000 0.16354977 0.16354977
1.00000000 0.16354977 0.16354977
0.00000000 0.37423944 0.16354977
0.02918999 0.37423944 0.16354977
0.16354977 0.37423944 0.16354977
0.37423944 0.37423944 0.16354977
0.71513516 0.37423944 0.16354977
1.00000000 0.37423944 0.16354977
1.00000000 0.37423944 0.16354977
1.00000000 0.37423944 0.16354977
1.00000000 0.37423944 0.16354977
0.00000000 0.71513516 0.16354977
0.02918999 0.71513516 0.16354977
0.16354977 0.71513516 0.16354977
0.37423944 0.71513516 0.16354977
0.71513516 0.71513516 0.16354977
1.00000000 0.71513516 0.16354977
1.00000000 0.71513516 0.16354977
1.00000000 0.71513516 0.16354977
1.00000000 0.71513516 0.16354977
0.00000000 1.00000000 0.16354977
0.02918999 1.00000000 0.16354977
0.16354977 1.00000000 0.16354977
0.37423944 1.00000000 0.16354977
0.71513516 1.00000000 0.16354977
1.00000000 1.00000000 0.16354977
1.00000000 1.00000000 0.16354977
1.00000000 1.00000000 0.16354977
1.00000000 1.00000000 0.16354977
0.00000000 1.00000000 0.16354977
0.02918999 1.00000000 0.16354977
0.16354977 1.00000000 0.16354977
0.37423944 1.00000000 0.16354977
0.71513516 1.00000000 0.16354977
1.00000000 1.00000000 0.16354977
1.00000000 1.00000000 0.16354977
1.00000000 1.00000000 0.16354977
1.00000000 1.00000000 0.16354977
0.00000000 1.00000000 0.16354977
0.02918999 1.00000000 0.16354977
0.16354977 1.00000000 0.16354977
0.37423944 1.00000000 0.16354977
0.71513516 1.00000000 0.16354977
1.00000000 1.00000000 0.16354977
1.00000000 1.00000000 0.16354977
1.00000000 1.00000000 0.16354977
1.00000000 1.00000000 0.16354977
0.00000000 1.00000000 0.16354977
0.02918999 1.00000000 0.16354977
0.16354977 1.00000000 0.16354977
0.37423944 1.00000000 0.16354977
0.71513516 1.00000000 0.16354977
1.00000000 1.00000000 0.16354977
1.00000000 1.00000000 0.16354977
1.00000000 1.00000000 0.16354977
1.00000000 1.00000000 0.16354977
0.00000000 0.00000000 0.37423944
0.02918999 0.00000000 0.37423944
0.16354977 0.00000000 0.37423944
0.37423944 0.00000000 0.37423944
0.71513516 0.00000000 0.37423944
1.00000000 0.00000000 0.37423944
1.00000000 0.00000000 0.37423944
1.00000000 0.00000000 0.37423944
1.00000000 0.00000000 0.37423944
0.00000000 0.02918999 0.37423944
0.02918999 0.02918999 0.37423944
0.16354977 0.02918999 0.37423944
0.37423944 0.02918999 0.37423944
0.71513516 0.02918999 0.37423944
1.00000000 0.02918999 0.37423944
1.00000000 0.02918999 0.37423944
1.00000000 0.02918999 0.37423944
1.00000000 0.02918999 0.37423944
0.00000000 0.16354977 0.37423944
0.02918999 0.16354977 0.37423944
0.16354977 0.16354977 0.37423944
0.37423944 0.16354977 0.37423944
0.71513516 0.16354977 0.37423944
1.00000000 0.16354977 0.37423944
1.00000000 0.16354977 0.37423944
1.00000000 0.16354977 0.37423944
1.00000000 0.16354977 0.37423944
0.00000000 0.37423944 0.37423944
0.02918999 0.37423944 0.37423944
0.16354977 0.37423944 0.37423944
0.37423944 0.37423944 0.37423944
0.71513516 0.37423944 0.37423944
1.00000000 0.37423944 0.37423944
1.00000000 0.37423944 0.37423944
1.00000000 0.37423944 0.37423944
1.00000000 0.37423944 0.37423944
0.00000000 0.71513516 0.37423944
0.02918999 0.71513516 0.37423944
0.16354977 0.71513516 0.37423944
0.37423944 0.71513516 0.37423944
0.71513516 0.71513516 0.37423944
1.00000000 0.71513516 0.37423944
1.00000000 0.71513516 0.37423944
1.00000000 0.71513516 0.37423944
1.00000000 0.71513516 0.37423944
0.00000000 1.00000000 0.37423944
0.02918999 1.00000000 0.37423944
0.16354977 1.00000000 0.37423944
0.37423944 1.00000000 0.37423944
0.71513516 1.00000000 0.37423944
1.00000000 1.00000000 0.37423944
1.00000000 1.00000000 0.37423944
1.00000000 1.00000000 0.37423944
1.00000000 1.00000000 0.37423944
0.00000000 1.00000000 0.37423944
0.02918999 1.00000000 0.37423944
0.16354977 1.00000000 0.37423944
0.37423944 1.00000000 0.37423944
0.71513516 1.00000000 0.37423944
1.00000000 1.00000000 0.37423944
1.00000000 1.00000000 0.37423944
1.00000000 1.00000000 0.37423944
1.00000000 1.00000000 0.37423944
0.00000000 1.00000000 0.37423944
0.02918999 1.00000000 0.37423944
0.16354977 1.00000000 0.37423944
0.37423944 1.00000000 0.37423944
0.71513516 1.00000000 0.37423944
1.00000000 1.00000000 0.37423944
1.00000000 1.00000000 0.37423944
1.00000000 1.00000000 0.37423944
1.00000000 1.00000000 0.37423944
0.00000000 1.00000000 0.37423944
0.02918999 1.00000000 0.37423944
0.16354977 1.00000000 0.37423944
0.37423944 1.00000000 0.37423944
0.71513516 1.00000000 0.37423944
1.00000000 1.00000000 0.37423944
1.00000000 1.00000000 0.37423944
1.00000000 1.00000000 0.37423944
1.00000000 1.00000000 0.37423944
0.00000000 0.00000000 0.71513516
0.02918999 0.00000000 0.71513516
0.16354977 0.00000000 0.71513516
0.37423944 0.00000000 0.71513516
0.71513516 0.00000000 0.71513516
1.00000000 0.00000000 0.71513516
1.00000000 0.00000000 0.71513516
1.00000000 0.00000000 0.71513516
1.00000000 0.00000000 0.71513516
0.00000000 0.02918999 0.71513516
0.02918999 0.02918999 0.71513516
0.16354977 0.02918999 0.71513516
0.37423944 0.02918999 0.71513516
0.71513516 0.02918999 0.71513516
1.00000000 0.02918999 0.71513516
1.00000000 0.02918999 0.71513516
1.00000000 0.02918999 0.71513516
1.00000000 0.02918999 0.71513516
0.00000000 0.16354977 0.71513516
0.02918999 0.16354977 0.71513516
0.16354977 0.16354977 0.71513516
0.37423944 0.16354977 0.71513516
0.71513516 0.16354977 0.71513516
1.00000000 0.16354977 0.71513516
1.00000000 0.16354977 0.71513516
1.00000000 0.16354977 0.71513516
1.00000000 0.16354977 0.71513516
0.00000000 0.37423944 0.71513516
0.02918999 0.37423944 0.71513516
0.16354977 0.37423944 0.71513516
0.37423944 0.37423944 0.71513516
0.71513516 0.37423944 0.71513516
1.00000000 0.37423944 0.71513516
1.00000000 0.37423944 0.71513516
1.00000000 0.37423944 0.71513516
1.00000000 0.37423944 0.71513516
0.00000000 0.71513516 0.71513516
0.02918999 0.71513516 0.71513516
0.16354977 0.71513516 0.71513516
0.37423944 0.71513516 0.71513516
0.71513516 0.71513516 0.71513516
1.00000000 0.71513516 0.71513516
1.00000000 0.71513516 0.71513516
1.00000000 0.71513516 0.71513516
1.00000000 0.71513516 0.71513516
0.00000000 1.00000000 0.71513516
0.02918999 1.00000000 0.71513516
0.16354977 1.00000000 0.71513516
0.37423944 1.00000000 0.71513516
0.71513516 1.00000000 0.71513516
1.00000000 1.00000000 0.71513516
1.00000000 1.00000000 0.71513516
1.00000000 1.00000000 0.71513516
1.00000000 1.00000000 0.71513516
0.00000000 1.00000000 0.71513516
0.02918999 1.00000000 0.71513516
0.16354977 1.00000000 0.71513516
0.37423944 1.00000000 0.71513516
0.71513516 1.00000000 0.71513516
1.00000000 1.00000000 0.71513516
1.00000000 1.00000000 0.71513516
1.00000000 1.00000000 0.71513516
1.00000000 1.00000000 0.71513516
0.00000000 1.00000000 0.71513516
0.02918999 1.00000000 0.71513516
0.16354977 1.00000000 0.71513516
0.37423944 1.00000000 0.71513516
0.71513516 1.00000000 0.71513516
1.00000000 1.00000000 0.71513516
1.00000000 1.00000000 0.71513516
1.00000000 1.00000000 0.71513516
1.00000000 1.00000000 0.71513516
0.00000000 1.00000000 0.71513516
0.02918999 1.00000000 0.71513516
0.16354977 1.00000000 0.71513516
0.37423944 1.00000000 0.71513516
0.71513516 1.00000000 0.71513516
1.00000000 1.00000000 0.71513516
1.00000000 1.00000000 0.71513516
1.00000000 1.00000000 0.71513516
1.00000000 1.00000000 0.71513516
0.00000000 0.00000000 1.00000000
0.02918999 0.00000000 1.00000000
0.16354977 0.00000000 1.00000000
0.37423944 0.00000000 1.00000000
0.71513516 0.00000000 1.00000000
1.00000000 0.00000000 1.00000000
1.00000000 0.00000000 1.00000000
1.00000000 0.00000000 1.00000000
1.00000000 0.00000000 1.00000000
0.00000000 0.02918999 1.00000000
0.02918999 0.02918999 1.00000000
0.16354977 0.02918999 1.00000000
0.37423944 0.02918999 1.00000000
0.71513516 0.02918999 1.00000000
1.00000000 0.02918999 1.00000000
1.00000000 0.02918999 1.00000000
1.00000000 0.02918999 1.00000000
1.00000000 0.02918999 1.00000000
0.00000000 0.16354977 1.00000000
0.02918999 0.16354977 1.00000000
0.16354977 0.16354977 1.00000000
0.37423944 0.16354977 1.00000000
0.71513516 0.16354977 1.00000000
1.00000000 0.16354977 1.00000000
1.00000000 0.16354977 1.00000000
1.00000000 0.16354977 1.00000000
1.00000000 0.16354977 1.00000000
0.00000000 0.37423944 1.00000000
0.02918999 0.37423944 1.00000000
0.16354977 0.37423944 1.00000000
0.37423944 0.37423944 1.00000000
0.71513516 0.37423944 1.00000000
1.00000000 0.37423944 1.00000000
1.00000000 0.37423944 1.00000000
1.00000000 0.37423944 1.00000000
1.00000000 0.37423944 1.00000000
0.00000000 0.71513516 1.00000000
0.02918999 0.71513516 1.00000000
0.16354977 0.71513516 1.00000000
0.37423944 0.71513516 1.00000000
0.71513516 0.71513516 1.00000000
1.00000000 0.71513516 1.00000000
1.00000000 0.71513516 1.00000000
1.00000000 0.71513516 1.00000000
1.00000000 0.71513516 1.00000000
0.00000000 1.00000000 1.00000000
0.02918999 1.00000000 1.00000000
0.16354977 1.00000000 1.00000000
0.37423944 1.00000000 1.00000000
0.71513516 1.00000000 1.00000000
1.00000000 1.00000000 1.00000000
1.00000000 1.00000000 1.00000000
1.00000000 1.00000000 1.00000000
1.00000000 1.00000000 1.00000000
0.00000000 1.00000000 1.00000000
0.02918999 1.00000000 1.00000000
0.16354977 1.00000000 1.00000000
0.37423944 1.00000000 1.00000000
0.71513516 1.00000000 1.00000000
1.00000000 1.00000000 1.00000000
1.00000000 1.00000000 1.00000000
1.00000000 1.00000000 1.00000000
1.00000000 1.00000000 1.00000000
0.00000000 1.00000000 1.00000000
0.02918999 1.00000000 1.00000000
0.16354977 1.00000000 1.00000000
0.37423944 1.00000000 1.00000000
0.71513516 1.00000000 1.00000000
1.00000000 1.00000000 1.00000000
1.00000000 1.00000000 1.00000000
1.00000000 1.00000000 1.00000000
1.00000000 1.00000000 1.00000000
0.00000000 1.00000000 1.00000000
0.02918999 1.00000000 1.00000000
0.16354977 1.00000000 1.00000000
0.37423944 1.00000000 1.00000000
0.71513516 1.00000000 1.00000000
1.00000000 1.00000000 1.00000000
1.00000000 1.00000000 1.00000000
1.00000000 1.00000000 1.00000000
1.00000000 1.00000000 1.00000000
0.00000000 0.00000000 1.00000000
0.02918999 0.00000000 1.00000000
0.16354977 0.00000000 1.00000000
0.37423944 0.00000000 1.00000000
0.71513516 0.00000000 1.00000000
1.00000000 0.00000000 1.00000000
1.00000000 0.00000000 1.00000000
1.00000000 0.00000000 1.00000000
1.00000000 0.00000000 1.00000000
0.00000000 0.02918999 1.00000000
0.02918999 0.02918999 1.00000000
0.16354977 0.02918999 1.00000000
0.37423944 0.02918999 1.00000000
0.71513516 0.02918999 1.00000000
1.00000000 0.02918999 1.00000000
1.00000000 0.02918999 1.00000000
1.00000000 0.02918999 1.00000000
1.00000000 0.02918999 1.00000000
0.00000000 0.16354977 1.00000000
0.02918999 0.16354977 1.00000000
0.16354977 0.16354977 1.00000000
0.37423944 0.16354977 1.00000000
0.71513516 0.16354977 1.00000000
1.00000000 0.16354977 1.00000000
1.00000000 0.16354977 1.00000000
1.00000000 0.16354977 1.00000000
1.00000000 0.16354977 1.00000000
0.00000000 0.37423944 1.00000000
0.02918999 0.37423944 1.00000000
0.16354977 0.37423944 1.00000000
0.37423944 0.37423944 1.00000000
0.71513516 0.37423944 1.00000000
1.00000000 0.37423944 1.00000000
1.00000000 0.37423944 1.00000000
1.00000000 0.37423944 1.00000000
1.00000000 0.37423944 1.00000000
0.00000000 0.71513516 1.00000000
0.02918999 0.71513516 1.00000000
0.16354977 0.71513516 1.00000000
0.37423944 0.71513516 1.00000000
0.71513516 0.71513516 1.00000000
1.00000000 0.71513516 1.00000000
1.00000000 0.71513516 1.00000000
1.00000000 0.71513516 1.00000000
1.00000000 0.71513516 1.00000000
0.00000000 1.00000000 1.00000000
0.02918999 1.00000000 1.00000000
0.16354977 1.00000000 1.00000000
0.37423944 1.00000000 1.00000000
0.71513516 1.00000000 1.00000000
1.00000000 1.00000000 1.00000000
1.00000000 1.00000000 1.00000000
1.00000000 1.00000000 1.00000000
1.00000000 1.00000000 1.00000000
0.00000000 1.00000000 1.00000000
0.02918999 1.00000000 1.00000000
0.16354977 1.00000000 1.00000000
0.37423944 1.00000000 1.00000000
0.71513516 1.00000000 1.00000000
1.00000000 1.00000000 1.00000000
1.00000000 1.00000000 1.00000000
1.00000000 1.00000000 1.00000000
1.00000000 1.00000000 1.00000000
0.00000000 1.00000000 1.00000000
0.02918999 1.00000000 1.00000000
0.16354977 1.00000000 1.00000000
0.37423944 1.00000000 1.00000000
0.71513516 1.00000000 1.00000000
1.00000000 1.00000000 1.00000000
1.00000000 1.00000000 1.00000000
1.00000000 1.00000000 1.00000000
1.00000000 1.00000000 1.00000000
0.00000000 1.00000000 1.00000000
0.02918999 1.00000000 1.00000000
0.16354977 1.00000000 1.00000000
0.37423944 1.00000000 1.00000000
0.71513516 1.00000000 1.00000000
1.00000000 1.00000000 1.00000000
1.00000000 1.00000000 1.00000000
1.00000000 1.00000000 1.00000000
1.00000000 1.00000000 1.00000000
0.00000000 0.00000000 1.00000000
0.02918999 0.00000000 1.00000000
0.16354977 0.00000000 1.00000000
0.37423944 0.00000000 1.00000000
0.71513516 0.00000000 1.00000000
1.00000000 0.00000000 1.00000000
1.00000000 0.00000000 1.00000000
1.00000000 0.00000000 1.00000000
1.00000000 0.00000000 1.00000000
0.00000000 0.02918999 1.00000000
0.02918999 0.02918999 1.00000000
0.16354977 0.02918999 1.00000000
0.37423944 0.02918999 1.00000000
0.71513516 0.02918999 1.00000000
1.00000000 0.02918999 1.00000000
1.00000000 0.02918999 1.00000000
1.00000000 0.02918999 1.00000000
1.00000000 0.02918999 1.00000000
0.00000000 0.16354977 1.00000000
0.02918999 0.16354977 1.00000000
0.16354977 0.16354977 1.00000000
0.37423944 0.16354977 1.00000000
0.71513516 0.16354977 1.00000000
1.00000000 0.16354977 1.00000000
1.00000000 0.16354977 1.00000000
1.00000000 0.16354977 1.00000000
1.00000000 0.16354977 1.00000000
0.00000000 0.37423944 1.00000000
0.02918999 0.37423944 1.00000000
0.16354977 0.37423944 1.00000000
0.37423944 0.37423944 1.00000000
0.71513516 0.37423944 1.00000000
1.00000000 0.37423944 1.00000000
1.00000000 0.37423944 1.00000000
1.00000000 0.37423944 1.00000000
1.00000000 0.37423944 1.00000000
0.00000000 0.71513516 1.00000000
0.02918999 0.71513516 1.00000000
0.16354977 0.71513516 1.00000000
0.37423944 0.71513516 1.00000000
0.71513516 0.71513516 1.00000000
1.00000000 0.71513516 1.00000000
1.00000000 0.71513516 1.00000000
1.00000000 0.71513516 1.00000000
1.00000000 0.71513516 1.00000000
0.00000000 1.00000000 1.00000000
0.02918999 1.00000000 1.00000000
0.16354977 1.00000000 1.00000000
0.37423944 1.00000000 1.00000000
0.71513516 1.00000000 1.00000000
1.00000000 1.00000000 1.00000000
1.00000000 1.00000000 1.00000000
1.00000000 1.00000000 1.00000000
1.00000000 1.00000000 1.00000000
0.00000000 1.00000000 1.00000000
0.02918999 1.00000000 1.00000000
0.16354977 1.00000000 1.00000000
0.37423944 1.00000000 1.00000000
0.71513516 1.00000000 1.00000000
1.00000000 1.00000000 1.00000000
1.00000000 1.00000000 1.00000000
1.00000000 1.00000000 1.00000000
1.00000000 1.00000000 1.00000000
0.00000000 1.00000000 1.00000000
0.02918999 1.00000000 1.00000000
0.16354977 1.00000000 1.00000000
0.37423944 1.00000000 1.00000000
0.71513516 1.00000000 1.00000000
1.00000000 1.00000000 1.00000000
1.00000000 1.00000000 1.00000000
1.00000000 1.00000000 1.00000000
1.00000000 1.00000000 1.00000000
0.00000000 1.00000000 1.00000000
0.02918999 1.00000000 1.00000000
0.16354977 1.00000000 1.00000000
0.37423944 1.00000000 1.00000000
0.71513516 1.00000000 1.00000000
1.00000000 1.00000000 1.00000000
1.00000000 1.00000000 1.00000000
1.00000000 1.00000000 1.00000000
1.00000000 1.00000000 1.00000000
0.00000000 0.00000000 1.00000000
0.02918999 0.00000000 1.00000000
0.16354977 0.00000000 1.00000000
0.37423944 0.00000000 1.00000000
0.71513516 0.00000000 1.00000000
1.00000000 0.00000000 1.00000000
1.00000000 0.00000000 1.00000000
1.00000000 0.00000000 1.00000000
1.00000000 0.00000000 1.00000000
0.00000000 0.02918999 1.00000000
0.02918999 0.02918999 1.00000000
0.16354977 0.02918999 1.00000000
0.37423944 0.02918999 1.00000000
0.71513516 0.02918999 1.00000000
1.00000000 0.02918999 1.00000000
1.00000000 0.02918999 1.00000000
1.00000000 0.02918999 1.00000000
1.00000000 0.02918999 1.00000000
0.00000000 0.16354977 1.00000000
0.02918999 0.16354977 1.00000000
0.16354977 0.16354977 1.00000000
0.37423944 0.16354977 1.00000000
0.71513516 0.16354977 1.00000000
1.00000000 0.16354977 1.00000000
1.00000000 0.16354977 1.00000000
1.00000000 0.16354977 1.00000000
1.00000000 0.16354977 1.00000000
0.00000000 0.37423944 1.00000000
0.02918999 0.37423944 1.00000000
0.16354977 0.37423944 1.00000000
0.37423944 0.37423944 1.00000000
0.71513516 0.37423944 1.00000000
1.00000000 0.37423944 1.00000000
1.00000000 0.37423944 1.00000000
1.00000000 0.37423944 1.00000000
1.00000000 0.37423944 1.00000000
0.00000000 0.71513516 1.00000000
0.02918999 0.71513516 1.00000000
0.16354977 0.71513516 1.00000000
0.37423944 0.71513516 1.00000000
0.71513516 0.71513516 1.00000000
1.00000000 0.71513516 1.00000000
1.00000000 0.71513516 1.00000000
1.00000000 0.71513516 1.00000000
1.00000000 0.71513516 1.00000000
0.00000000 1.00000000 1.00000000
0.02918999 1.00000000 1.00000000
0.16354977 1.00000000 1.00000000
0.37423944 1.00000000 1.00000000
0.71513516 1.00000000 1.00000000
1.00000000 1.00000000 1.00000000
1.00000000 1.00000000 1.00000000
1.00000000 1.00000000 1.00000000
1.00000000 1.00000000 1.00000000
0.00000000 1.00000000 1.00000000
0.02918999 1.00000000 1.00000000
0.16354977 1.00000000 1.00000000
0.37423944 1.00000000 1.00000000
0.71513516 1.00000000 1.00000000
1.00000000 1.00000000 1.00000000
1.00000000 1.00000000 1.00000000
1.00000000 1.00000000 1.00000000
1.00000000 1.00000000 1.00000000
0.00000000 1.00000000 1.00000000
0.02918999 1.00000000 1.00000000
0.16354977 1.00000000 1.00000000
0.37423944 1.00000000 1.00000000
0.71513516 1.00000000 1.00000000
1.00000000 1.00000000 1.00000000
1.00000000 1.00000000 1.00000000
1.00000000 1.00000000 1.00000000
1.00000000 1.00000000 1.00000000
0.00000000 1.00000000 1.00000000
0.02918999 1.00000000 1.00000000
0.16354977 1.00000000 1.00000000
0.37423944 1.00000000 1.00000000
0.71513516 1.00000000 1.00000000
1.00000000 1.00000000 1.00000000
1.00000000 1.00000000 1.00000000
1.00000000 1.00000000 1.00000000
1.00000000 1.00000000 1.00000000
