packages/ingest-daemon/Resources/LUTs/bm_film_gen5_rec709.cube
LUT_3D_SIZE 5
0.00000000 0.00000000 0.00000000
0.00597395 0.00000000 0.00000000
0.31711701 0.00000000 0.00000000
1.00000000 0.00000000 0.00000000
1.00000000 0.00000000 0.00000000
0.00000000 0.00597395 0.00000000
0.00597395 0.00597395 0.00000000
0.31711701 0.00597395 0.00000000
1.00000000 0.00597395 0.00000000
1.00000000 0.00597395 0.00000000
0.00000000 0.31711701 0.00000000
0.00597395 0.31711701 0.00000000
0.31711701 0.31711701 0.00000000
1.00000000 0.31711701 0.00000000
1.00000000 0.31711701 0.00000000
0.00000000 1.00000000 0.00000000
0.00597395 1.00000000 0.00000000
0.31711701 1.00000000 0.00000000
1.00000000 1.00000000 0.00000000
1.00000000 1.00000000 0.00000000
0.00000000 1.00000000 0.00000000
0.00597395 1.00000000 0.00000000
0.31711701 1.00000000 0.00000000
1.00000000 1.00000000 0.00000000
1.00000000 1.00000000 0.00000000
0.00000000 0.00000000 0.00597395
0.00597395 0.00000000 0.00597395
0.31711701 0.00000000 0.00597395
1.00000000 0.00000000 0.00597395
1.00000000 0.00000000 0.00597395
0.00000000 0.00597395 0.00597395
0.00597395 0.00597395 0.00597395
0.31711701 0.00597395 0.00597395
1.00000000 0.00597395 0.00597395
1.00000000 0.00597395 0.00597395
0.00000000 0.31711701 0.00597395
0.00597395 0.31711701 0.00597395
0.31711701 0.31711701 0.00597395
1.00000000 0.31711701 0.00597395
1.00000000 0.31711701 0.00597395
0.00000000 1.00000000 0.00597395
0.00597395 1.00000000 0.00597395
0.31711701 1.00000000 0.00597395
1.00000000 1.00000000 0.00597395
1.00000000 1.00000000 0.00597395
0.00000000 1.00000000 0.00597395
0.00597395 1.00000000 0.00597395
0.31711701 1.00000000 0.00597395
1.00000000 1.00000000 0.00597395
1.00000000 1.00000000 0.00597395
0.00000000 0.00000000 0.31711701
0.00597395 0.00000000 0.31711701
0.31711701 0.00000000 0.31711701
1.00000000 0.00000000 0.31711701
1.00000000 0.00000000 0.31711701
0.00000000 0.00597395 0.31711701
0.00597395 0.00597395 0.31711701
0.31711701 0.00597395 0.31711701
1.00000000 0.00597395 0.31711701
1.00000000 0.00597395 0.31711701
0.00000000 0.31711701 0.31711701
0.00597395 0.31711701 0.31711701
0.31711701 0.31711701 0.31711701
1.00000000 0.31711701 0.31711701
1.00000000 0.31711701 0.31711701
0.00000000 1.00000000 0.31711701
0.00597395 1.00000000 0.31711701
0.31711701 1.00000000 0.31711701
1.00000000 1.00000000 0.31711701
1.00000000 1.00000000 0.31711701
0.00000000 1.00000000 0.31711701
0.00597395 1.00000000 0.31711701
0.31711701 1.00000000 0.31711701
1.00000000 1.00000000 0.31711701
1.00000000 1.00000000 0.31711701
0.00000000 0.00000000 1.00000000
0.00597395 0.00000000 1.00000000
0.31711701 0.00000000 1.00000000
1.00000000 0.00000000 1.00000000
1.00000000 0.00000000 1.00000000
0.00000000 0.00597395 1.00000000
0.00597395 0.00597395 1.00000000
0.31711701 0.00597395 1.00000000
1.00000000 0.00597395 1.00000000
1.00000000 0.00597395 1.00000000
0.00000000 0.31711701 1.00000000
0.00597395 0.31711701 1.00000000
0.31711701 0.31711701 1.00000000
1.00000000 0.31711701 1.00000000
1.00000000 0.31711701 1.00000000
0.00000000 1.00000000 1.00000000
0.00597395 1.00000000 1.00000000
0.31711701 1.00000000 1.00000000
1.00000000 1.00000000 1.00000000
1.00000000 1.00000000 1.00000000
0.00000000 1.00000000 1.00000000
0.00597395 1.00000000 1.00000000
0.31711701 1.00000000 1.00000000
1.00000000 1.00000000 1.00000000
1.00000000 1.00000000 1.00000000
0.00000000 0.00000000 1.00000000
0.00597395 0.00000000 1.00000000
0.31711701 0.00000000 1.00000000
1.00000000 0.00000000 1.00000000
1.00000000 0.00000000 1.00000000
0.00000000 0.00597395 1.00000000
0.00597395 0.00597395 1.00000000
0.31711701 0.00597395 1.00000000
1.00000000 0.00597395 1.00000000
1.00000000 0.00597395 1.00000000
0.00000000 0.31711701 1.00000000
0.00597395 0.31711701 1.00000000
0.31711701 0.31711701 1.00000000
1.00000000 0.31711701 1.00000000
1.00000000 0.31711701 1.00000000
0.00000000 1.00000000 1.00000000
0.00597395 1.00000000 1.00000000
0.31711701 1.00000000 1.00000000
1.00000000 1.00000000 1.00000000
1.00000000 1.00000000 1.00000000
0.00000000 1.00000000 1.00000000
0.00597395 1.00000000 1.00000000
0.31711701 1.00000000 1.00000000
1.00000000 1.00000000 1.00000000
1.00000000 1.00000000 1.00000000
