packages/ingest-daemon/Resources/LUTs/bm_film_gen5_rec709.cube
LUT_3D_SIZE 33
0.00000000 0.00000000 0.00000000
0.00000000 0.00000000 0.00000000
0.00000000 0.00000000 0.00000000
0.00000000 0.00000000 0.00000000
0.00000000 0.00000000 0.00000000
0.00000000 0.00000000 0.00000000
0.00000000 0.00000000 0.00000000
0.00000000 0.00000000 0.00000000
0.00597395 0.00000000 0.00000000
0.01925353 0.00000000 0.00000000
0.03827785 0.00000000 0.00000000
0.06553204 0.00000000 0.00000000
0.10320745 0.00000000 0.00000000
0.14620507 0.00000000 0.00000000
0.19521869 0.00000000 0.00000000
0.25166881 0.00000000 0.00000000
0.31711701 0.00000000 0.00000000
0.39333178 0.00000000 0.00000000
0.48234721 0.00000000 0.00000000
0.58652279 0.00000000 0.00000000
0.70860901 0.00000000 0.00000000
0.85182160 0.00000000 0.00000000
1.00000000 0.00000000 0.00000000
1.00000000 0.00000000 0.00000000
1.00000000 0.00000000 0.00000000
1.00000000 0.00000000 0.00000000
1.00000000 0.00000000 0.00000000
1.00000000 0.00000000 0.00000000
1.00000000 0.00000000 0.00000000
1.00000000 0.00000000 0.00000000
1.00000000 0.00000000 0.00000000
1.00000000 0.00000000 0.00000000
1.00000000 0.00000000 0.00000000
0.00000000 0.00000000 0.00000000
0.00000000 0.00000000 0.00000000
0.00000000 0.00000000 0.00000000
0.00000000 0.00000000 0.00000000
0.00000000 0.00000000 0.00000000
0.00000000 0.00000000 0.00000000
0.00000000 0.00000000 0.00000000
0.00000000 0.00000000 0.00000000
0.00597395 0.00000000 0.00000000
0.01925353 0.00000000 0.00000000
0.03827785 0.00000000 0.00000000
0.06553204 0.00000000 0.00000000
0.10320745 0.00000000 0.00000000
0.14620507 0.00000000 0.00000000
0.19521869 0.00000000 0.00000000
0.25166881 0.00000000 0.00000000
0.31711701 0.00000000 0.00000000
0.39333178 0.00000000 0.00000000
0.48234721 0.00000000 0.00000000
0.58652279 0.00000000 0.00000000
0.70860901 0.00000000 0.00000000
0.85182160 0.00000000 0.00000000
1.00000000 0.00000000 0.00000000
1.00000000 0.00000000 0.00000000
1.00000000 0.00000000 0.00000000
1.00000000 0.00000000 0.00000000
1.00000000 0.00000000 0.00000000
1.00000000 0.00000000 0.00000000
1.00000000 0.00000000 0.00000000
1.00000000 0.00000000 0.00000000
1.00000000 0.00000000 0.00000000
1.00000000 0.00000000 0.00000000
1.00000000 0.00000000 0.00000000
0.00000000 0.00000000 0.00000000
0.00000000 0.00000000 0.00000000
0.00000000 0.00000000 0.00000000
0.00000000 0.00000000 0.00000000
0.00000000 0.00000000 0.00000000
0.00000000 0.00000000 0.00000000
0.00000000 0.00000000 0.00000000
0.00000000 0.00000000 0.00000000
0.00597395 0.00000000 0.00000000
0.01925353 0.00000000 0.00000000
0.03827785 0.00000000 0.00000000
0.06553204 0.00000000 0.00000000
0.10320745 0.00000000 0.00000000
0.14620507 0.00000000 0.00000000
0.19521869 0.00000000 0.00000000
0.25166881 0.00000000 0.00000000
0.31711701 0.00000000 0.00000000
0.39333178 0.00000000 0.00000000
0.48234721 0.00000000 0.00000000
0.58652279 0.00000000 0.00000000
0.70860901 0.00000000 0.00000000
0.85182160 0.00000000 0.00000000
1.00000000 0.00000000 0.00000000
1.00000000 0.00000000 0.00000000
1.00000000 0.00000000 0.00000000
1.00000000 0.00000000 0.00000000
1.00000000 0.00000000 0.00000000
1.00000000 0.00000000 0.00000000
1.00000000 0.00000000 0.00000000
1.00000000 0.00000000 0.00000000
1.00000000 0.00000000 0.00000000
1.00000000 0.00000000 0.00000000
1.00000000 0.00000000 0.00000000
0.00000000 0.00000000 0.00000000
0.00000000 0.00000000 0.00000000
0.00000000 0.00000000 0.00000000
0.00000000 0.00000000 0.00000000
0.00000000 0.00000000 0.00000000
0.00000000 0.00000000 0.00000000
0.00000000 0.00000000 0.00000000
0.00000000 0.00000000 0.00000000
0.00597395 0.00000000 0.00000000
0.01925353 0.00000000 0.00000000
0.03827785 0.00000000 0.00000000
0.06553204 0.00000000 0.00000000
0.10320745 0.00000000 0.00000000
0.14620507 0.00000000 0.00000000
0.19521869 0.00000000 0.00000000
0.25166881 0.00000000 0.00000000
0.31711701 0.00000000 0.00000000
0.39333178 0.00000000 0.00000000
0.48234721 0.00000000 0.00000000
0.58652279 0.00000000 0.00000000
0.70860901 0.00000000 0.00000000
0.85182160 0.00000000 0.00000000
1.00000000 0.00000000 0.00000000
1.00000000 0.00000000 0.00000000
1.00000000 0.00000000 0.00000000
1.00000000 0.00000000 0.00000000
1.00000000 0.00000000 0.00000000
1.00000000 0.00000000 0.00000000
1.00000000 0.00000000 0.00000000
1.00000000 0.00000000 0.00000000
1.00000000 0.00000000 0.00000000
1.00000000 0.00000000 0.00000000
1.00000000 0.00000000 0.00000000
0.00000000 0.00000000 0.00000000
0.00000000 0.00000000 0.00000000
0.00000000 0.00000000 0.00000000
0.00000000 0.00000000 0.00000000
0.00000000 0.00000000 0.00000000
0.00000000 0.00000000 0.00000000
0.00000000 0.00000000 0.00000000
0.00000000 0.00000000 0.00000000
0.00597395 0.00000000 0.00000000
0.01925353 0.00000000 0.00000000
0.03827785 0.00000000 0.00000000
0.06553204 0.00000000 0.00000000
0.10320745 0.00000000 0.00000000
0.14620507 0.00000000 0.00000000
0.19521869 0.00000000 0.00000000
0.25166881 0.00000000 0.00000000
0.31711701 0.00000000 0.00000000
0.39333178 0.00000000 0.00000000
0.48234721 0.00000000 0.00000000
0.58652279 0.00000000 0.00000000
0.70860901 0.00000000 0.00000000
0.85182160 0.00000000 0.00000000
1.00000000 0.00000000 0.00000000
1.00000000 0.00000000 0.00000000
1.00000000 0.00000000 0.00000000
1.00000000 0.00000000 0.00000000
1.00000000 0.00000000 0.00000000
1.00000000 0.00000000 0.00000000
1.00000000 0.00000000 0.00000000
1.00000000 0.00000000 0.00000000
1.00000000 0.00000000 0.00000000
1.00000000 0.00000000 0.00000000
1.00000000 0.00000000 0.00000000
0.00000000 0.00000000 0.00000000
0.00000000 0.00000000 0.00000000
0.00000000 0.00000000 0.00000000
0.00000000 0.00000000 0.00000000
0.00000000 0.00000000 0.00000000
0.00000000 0.00000000 0.00000000
0.00000000 0.00000000 0.00000000
0.00000000 0.00000000 0.00000000
0.00597395 0.00000000 0.00000000
0.01925353 0.00000000 0.00000000
0.03827785 0.00000000 0.00000000
0.06553204 0.00000000 0.00000000
0.10320745 0.00000000 0.00000000
0.14620507 0.00000000 0.00000000
0.19521869 0.00000000 0.00000000
0.25166881 0.00000000 0.00000000
0.31711701 0.00000000 0.00000000
0.39333178 0.00000000 0.00000000
0.48234721 0.00000000 0.00000000
0.58652279 0.00000000 0.00000000
0.70860901 0.00000000 0.00000000
0.85182160 0.00000000 0.00000000
1.00000000 0.00000000 0.00000000
1.00000000 0.00000000 0.00000000
1.00000000 0.00000000 0.00000000
1.00000000 0.00000000 0.00000000
1.00000000 0.00000000 0.00000000
1.00000000 0.00000000 0.00000000
1.00000000 0.00000000 0.00000000
1.00000000 0.00000000 0.00000000
1.00000000 0.00000000 0.00000000
1.00000000 0.00000000 0.00000000
1.00000000 0.00000000 0.00000000
0.00000000 0.00000000 0.00000000
0.00000000 0.00000000 0.00000000
0.00000000 0.00000000 0.00000000
0.00000000 0.00000000 0.00000000
0.00000000 0.00000000 0.00000000
0.00000000 0.00000000 0.00000000
0.00000000 0.00000000 0.00000000
0.00000000 0.00000000 0.00000000
0.00597395 0.00000000 0.00000000
0.01925353 0.00000000 0.00000000
0.03827785 0.00000000 0.00000000
0.06553204 0.00000000 0.00000000
0.10320745 0.00000000 0.00000000
0.14620507 0.00000000 0.00000000
0.19521869 0.00000000 0.00000000
0.25166881 0.00000000 0.00000000
0.31711701 0.00000000 0.00000000
0.39333178 0.00000000 0.00000000
0.48234721 0.00000000 0.00000000
0.58652279 0.00000000 0.00000000
0.70860901 0.00000000 0.00000000
0.85182160 0.00000000 0.00000000
1.00000000 0.00000000 0.00000000
1.00000000 0.00000000 0.00000000
1.00000000 0.00000000 0.00000000
1.00000000 0.00000000 0.00000000
1.00000000 0.00000000 0.00000000
1.00000000 0.00000000 0.00000000
1.00000000 0.00000000 0.00000000
1.00000000 0.00000000 0.00000000
1.00000000 0.00000000 0.00000000
1.00000000 0.00000000 0.00000000
1.00000000 0.00000000 0.00000000
0.00000000 0.00000000 0.00000000
0.00000000 0.00000000 0.00000000
0.00000000 0.00000000 0.00000000
0.00000000 0.00000000 0.00000000
0.00000000 0.00000000 0.00000000
0.00000000 0.00000000 0.00000000
0.00000000 0.00000000 0.00000000
0.00000000 0.00000000 0.00000000
0.00597395 0.00000000 0.00000000
0.01925353 0.00000000 0.00000000
0.03827785 0.00000000 0.00000000
0.06553204 0.00000000 0.00000000
0.10320745 0.00000000 0.00000000
0.14620507 0.00000000 0.00000000
0.19521869 0.00000000 0.00000000
0.25166881 0.00000000 0.00000000
0.31711701 0.00000000 0.00000000
0.39333178 0.00000000 0.00000000
0.48234721 0.00000000 0.00000000
0.58652279 0.00000000 0.00000000
0.70860901 0.00000000 0.00000000
0.85182160 0.00000000 0.00000000
1.00000000 0.00000000 0.00000000
1.00000000 0.00000000 0.00000000
1.00000000 0.00000000 0.00000000
1.00000000 0.00000000 0.00000000
1.00000000 0.00000000 0.00000000
1.00000000 0.00000000 0.00000000
1.00000000 0.00000000 0.00000000
1.00000000 0.00000000 0.00000000
1.00000000 0.00000000 0.00000000
1.00000000 0.00000000 0.00000000
1.00000000 0.00000000 0.00000000
0.00000000 0.00597395 0.00000000
0.00000000 0.00597395 0.00000000
0.00000000 0.00597395 0.00000000
0.00000000 0.00597395 0.00000000
0.00000000 0.00597395 0.00000000
0.00000000 0.00597395 0.00000000
0.00000000 0.00597395 0.00000000
0.00000000 0.00597395 0.00000000
0.00597395 0.00597395 0.00000000
0.01925353 0.00597395 0.00000000
0.03827785 0.00597395 0.00000000
0.06553204 0.00597395 0.00000000
0.10320745 0.00597395 0.00000000
0.14620507 0.00597395 0.00000000
0.19521869 0.00597395 0.00000000
0.25166881 0.00597395 0.00000000
0.31711701 0.00597395 0.00000000
0.39333178 0.00597395 0.00000000
0.48234721 0.00597395 0.00000000
0.58652279 0.00597395 0.00000000
0.70860901 0.00597395 0.00000000
0.85182160 0.00597395 0.00000000
1.00000000 0.00597395 0.00000000
1.00000000 0.00597395 0.00000000
1.00000000 0.00597395 0.00000000
1.00000000 0.00597395 0.00000000
1.00000000 0.00597395 0.00000000
1.00000000 0.00597395 0.00000000
1.00000000 0.00597395 0.00000000
1.00000000 0.00597395 0.00000000
1.00000000 0.00597395 0.00000000
1.00000000 0.00597395 0.00000000
1.00000000 0.00597395 0.00000000
0.00000000 0.01925353 0.00000000
0.00000000 0.01925353 0.00000000
0.00000000 0.01925353 0.00000000
0.00000000 0.01925353 0.00000000
0.00000000 0.01925353 0.00000000
0.00000000 0.01925353 0.00000000
0.00000000 0.01925353 0.00000000
0.00000000 0.01925353 0.00000000
0.00597395 0.01925353 0.00000000
0.01925353 0.01925353 0.00000000
0.03827785 0.01925353 0.00000000
0.06553204 0.01925353 0.00000000
0.10320745 0.01925353 0.00000000
0.14620507 0.01925353 0.00000000
0.19521869 0.01925353 0.00000000
0.25166881 0.01925353 0.00000000
0.31711701 0.01925353 0.00000000
0.39333178 0.01925353 0.00000000
0.48234721 0.01925353 0.00000000
0.58652279 0.01925353 0.00000000
0.70860901 0.01925353 0.00000000
0.85182160 0.01925353 0.00000000
1.00000000 0.01925353 0.00000000
1.00000000 0.01925353 0.00000000
1.00000000 0.01925353 0.00000000
1.00000000 0.01925353 0.00000000
1.00000000 0.01925353 0.00000000
1.00000000 0.01925353 0.00000000
1.00000000 0.01925353 0.00000000
1.00000000 0.01925353 0.00000000
1.00000000 0.01925353 0.00000000
1.00000000 0.01925353 0.00000000
1.00000000 0.01925353 0.00000000
0.00000000 0.03827785 0.00000000
0.00000000 0.03827785 0.00000000
0.00000000 0.03827785 0.00000000
0.00000000 0.03827785 0.00000000
0.00000000 0.03827785 0.00000000
0.00000000 0.03827785 0.00000000
0.00000000 0.03827785 0.00000000
0.00000000 0.03827785 0.00000000
0.00597395 0.03827785 0.00000000
0.01925353 0.03827785 0.00000000
0.03827785 0.03827785 0.00000000
0.06553204 0.03827785 0.00000000
0.10320745 0.03827785 0.00000000
0.14620507 0.03827785 0.00000000
0.19521869 0.03827785 0.00000000
0.25166881 0.03827785 0.00000000
0.31711701 0.03827785 0.00000000
0.39333178 0.03827785 0.00000000
0.48234721 0.03827785 0.00000000
0.58652279 0.03827785 0.00000000
0.70860901 0.03827785 0.00000000
0.85182160 0.03827785 0.00000000
1.00000000 0.03827785 0.00000000
1.00000000 0.03827785 0.00000000
1.00000000 0.03827785 0.00000000
1.00000000 0.03827785 0.00000000
1.00000000 0.03827785 0.00000000
1.00000000 0.03827785 0.00000000
1.00000000 0.03827785 0.00000000
1.00000000 0.03827785 0.00000000
1.00000000 0.03827785 0.00000000
1.00000000 0.03827785 0.00000000
1.00000000 0.03827785 0.00000000
0.00000000 0.06553204 0.00000000
0.00000000 0.06553204 0.00000000
0.00000000 0.06553204 0.00000000
0.00000000 0.06553204 0.00000000
0.00000000 0.06553204 0.00000000
0.00000000 0.06553204 0.00000000
0.00000000 0.06553204 0.00000000
0.00000000 0.06553204 0.00000000
0.00597395 0.06553204 0.00000000
0.01925353 0.06553204 0.00000000
0.03827785 0.06553204 0.00000000
0.06553204 0.06553204 0.00000000
0.10320745 0.06553204 0.00000000
0.14620507 0.06553204 0.00000000
0.19521869 0.06553204 0.00000000
0.25166881 0.06553204 0.00000000
0.31711701 0.06553204 0.00000000
0.39333178 0.06553204 0.00000000
0.48234721 0.06553204 0.00000000
0.58652279 0.06553204 0.00000000
0.70860901 0.06553204 0.00000000
0.85182160 0.06553204 0.00000000
1.00000000 0.06553204 0.00000000
1.00000000 0.06553204 0.00000000
1.00000000 0.06553204 0.00000000
1.00000000 0.06553204 0.00000000
1.00000000 0.06553204 0.00000000
1.00000000 0.06553204 0.00000000
1.00000000 0.06553204 0.00000000
1.00000000 0.06553204 0.00000000
1.00000000 0.06553204 0.00000000
1.00000000 0.06553204 0.00000000
1.00000000 0.06553204 0.00000000
0.00000000 0.10320745 0.00000000
0.00000000 0.10320745 0.00000000
0.00000000 0.10320745 0.00000000
0.00000000 0.10320745 0.00000000
0.00000000 0.10320745 0.00000000
0.00000000 0.10320745 0.00000000
0.00000000 0.10320745 0.00000000
0.00000000 0.10320745 0.00000000
0.00597395 0.10320745 0.00000000
0.01925353 0.10320745 0.00000000
0.03827785 0.10320745 0.00000000
0.06553204 0.10320745 0.00000000
0.10320745 0.10320745 0.00000000
0.14620507 0.10320745 0.00000000
0.19521869 0.10320745 0.00000000
0.25166881 0.10320745 0.00000000
0.31711701 0.10320745 0.00000000
0.39333178 0.10320745 0.00000000
0.48234721 0.10320745 0.00000000
0.58652279 0.10320745 0.00000000
0.70860901 0.10320745 0.00000000
0.85182160 0.10320745 0.00000000
1.00000000 0.10320745 0.00000000
1.00000000 0.10320745 0.00000000
1.00000000 0.10320745 0.00000000
1.00000000 0.10320745 0.00000000
1.00000000 0.10320745 0.00000000
1.00000000 0.10320745 0.00000000
1.00000000 0.10320745 0.00000000
1.00000000 0.10320745 0.00000000
1.00000000 0.10320745 0.00000000
1.00000000 0.10320745 0.00000000
1.00000000 0.10320745 0.00000000
0.00000000 0.14620507 0.00000000
0.00000000 0.14620507 0.00000000
0.00000000 0.14620507 0.00000000
0.00000000 0.14620507 0.00000000
0.00000000 0.14620507 0.00000000
0.00000000 0.14620507 0.00000000
0.00000000 0.14620507 0.00000000
0.00000000 0.14620507 0.00000000
0.00597395 0.14620507 0.00000000
0.01925353 0.14620507 0.00000000
0.03827785 0.14620507 0.00000000
0.06553204 0.14620507 0.00000000
0.10320745 0.14620507 0.00000000
0.14620507 0.14620507 0.00000000
0.19521869 0.14620507 0.00000000
0.25166881 0.14620507 0.00000000
0.31711701 0.14620507 0.00000000
0.39333178 0.14620507 0.00000000
0.48234721 0.14620507 0.00000000
0.58652279 0.14620507 0.00000000
0.70860901 0.14620507 0.00000000
0.85182160 0.14620507 0.00000000
1.00000000 0.14620507 0.00000000
1.00000000 0.14620507 0.00000000
1.00000000 0.14620507 0.00000000
1.00000000 0.14620507 0.00000000
1.00000000 0.14620507 0.00000000
1.00000000 0.14620507 0.00000000
1.00000000 0.14620507 0.00000000
1.00000000 0.14620507 0.00000000
1.00000000 0.14620507 0.00000000
1.00000000 0.14620507 0.00000000
1.00000000 0.14620507 0.00000000
0.00000000 0.19521869 0.00000000
0.00000000 0.19521869 0.00000000
0.00000000 0.19521869 0.00000000
0.00000000 0.19521869 0.00000000
0.00000000 0.19521869 0.00000000
0.00000000 0.19521869 0.00000000
0.00000000 0.19521869 0.00000000
0.00000000 0.19521869 0.00000000
0.00597395 0.19521869 0.00000000
0.01925353 0.19521869 0.00000000
0.03827785 0.19521869 0.00000000
0.06553204 0.19521869 0.00000000
0.10320745 0.19521869 0.00000000
0.14620507 0.19521869 0.00000000
0.19521869 0.19521869 0.00000000
0.25166881 0.19521869 0.00000000
0.31711701 0.19521869 0.00000000
0.39333178 0.19521869 0.00000000
0.48234721 0.19521869 0.00000000
0.58652279 0.19521869 0.00000000
0.70860901 0.19521869 0.00000000
0.85182160 0.19521869 0.00000000
1.00000000 0.19521869 0.00000000
1.00000000 0.19521869 0.00000000
1.00000000 0.19521869 0.00000000
1.00000000 0.19521869 0.00000000
1.00000000 0.19521869 0.00000000
1.00000000 0.19521869 0.00000000
1.00000000 0.19521869 0.00000000
1.00000000 0.19521869 0.00000000
1.00000000 0.19521869 0.00000000
1.00000000 0.19521869 0.00000000
1.00000000 0.19521869 0.00000000
0.00000000 0.25166881 0.00000000
0.00000000 0.25166881 0.00000000
0.00000000 0.25166881 0.00000000
0.00000000 0.25166881 0.00000000
0.00000000 0.25166881 0.00000000
0.00000000 0.25166881 0.00000000
0.00000000 0.25166881 0.00000000
0.00000000 0.25166881 0.00000000
0.00597395 0.25166881 0.00000000
0.01925353 0.25166881 0.00000000
0.03827785 0.25166881 0.00000000
0.06553204 0.25166881 0.00000000
0.10320745 0.25166881 0.00000000
0.14620507 0.25166881 0.00000000
0.19521869 0.25166881 0.00000000
0.25166881 0.25166881 0.00000000
0.31711701 0.25166881 0.00000000
0.39333178 0.25166881 0.00000000
0.48234721 0.25166881 0.00000000
0.58652279 0.25166881 0.00000000
0.70860901 0.25166881 0.00000000
0.85182160 0.25166881 0.00000000
1.00000000 0.25166881 0.00000000
1.00000000 0.25166881 0.00000000
1.00000000 0.25166881 0.00000000
1.00000000 0.25166881 0.00000000
1.00000000 0.25166881 0.00000000
1.00000000 0.25166881 0.00000000
1.00000000 0.25166881 0.00000000
1.00000000 0.25166881 0.00000000
1.00000000 0.25166881 0.00000000
1.00000000 0.25166881 0.00000000
1.00000000 0.25166881 0.00000000
0.00000000 0.31711701 0.00000000
0.00000000 0.31711701 0.00000000
0.00000000 0.31711701 0.00000000
0.00000000 0.31711701 0.00000000
0.00000000 0.31711701 0.00000000
0.00000000 0.31711701 0.00000000
0.00000000 0.31711701 0.00000000
0.00000000 0.31711701 0.00000000
0.00597395 0.31711701 0.00000000
0.01925353 0.31711701 0.00000000
0.03827785 0.31711701 0.00000000
0.06553204 0.31711701 0.00000000
0.10320745 0.31711701 0.00000000
0.14620507 0.31711701 0.00000000
0.19521869 0.31711701 0.00000000
0.25166881 0.31711701 0.00000000
0.31711701 0.31711701 0.00000000
0.39333178 0.31711701 0.00000000
0.48234721 0.31711701 0.00000000
0.58652279 0.31711701 0.00000000
0.70860901 0.31711701 0.00000000
0.85182160 0.31711701 0.00000000
1.00000000 0.31711701 0.00000000
1.00000000 0.31711701 0.00000000
1.00000000 0.31711701 0.00000000
1.00000000 0.31711701 0.00000000
1.00000000 0.31711701 0.00000000
1.00000000 0.31711701 0.00000000
1.00000000 0.31711701 0.00000000
1.00000000 0.31711701 0.00000000
1.00000000 0.31711701 0.00000000
1.00000000 0.31711701 0.00000000
1.00000000 0.31711701 0.00000000
0.00000000 0.39333178 0.00000000
0.00000000 0.39333178 0.00000000
0.00000000 0.39333178 0.00000000
0.00000000 0.39333178 0.00000000
0.00000000 0.39333178 0.00000000
0.00000000 0.39333178 0.00000000
0.00000000 0.39333178 0.00000000
0.00000000 0.39333178 0.00000000
0.00597395 0.39333178 0.00000000
0.01925353 0.39333178 0.00000000
0.03827785 0.39333178 0.00000000
0.06553204 0.39333178 0.00000000
0.10320745 0.39333178 0.00000000
0.14620507 0.39333178 0.00000000
0.19521869 0.39333178 0.00000000
0.25166881 0.39333178 0.00000000
0.31711701 0.39333178 0.00000000
0.39333178 0.39333178 0.00000000
0.48234721 0.39333178 0.00000000
0.58652279 0.39333178 0.00000000
0.70860901 0.39333178 0.00000000
0.85182160 0.39333178 0.00000000
1.00000000 0.39333178 0.00000000
1.00000000 0.39333178 0.00000000
1.00000000 0.39333178 0.00000000
1.00000000 0.39333178 0.00000000
1.00000000 0.39333178 0.00000000
1.00000000 0.39333178 0.00000000
1.00000000 0.39333178 0.00000000
1.00000000 0.39333178 0.00000000
1.00000000 0.39333178 0.00000000
1.00000000 0.39333178 0.00000000
1.00000000 0.39333178 0.00000000
0.00000000 0.48234721 0.00000000
0.00000000 0.48234721 0.00000000
0.00000000 0.48234721 0.00000000
0.00000000 0.48234721 0.00000000
0.00000000 0.48234721 0.00000000
0.00000000 0.48234721 0.00000000
0.00000000 0.48234721 0.00000000
0.00000000 0.48234721 0.00000000
0.00597395 0.48234721 0.00000000
0.01925353 0.48234721 0.00000000
0.03827785 0.48234721 0.00000000
0.06553204 0.48234721 0.00000000
0.10320745 0.48234721 0.00000000
0.14620507 0.48234721 0.00000000
0.19521869 0.48234721 0.00000000
0.25166881 0.48234721 0.00000000
0.31711701 0.48234721 0.00000000
0.39333178 0.48234721 0.00000000
0.48234721 0.48234721 0.00000000
0.58652279 0.48234721 0.00000000
0.70860901 0.48234721 0.00000000
0.85182160 0.48234721 0.00000000
1.00000000 0.48234721 0.00000000
1.00000000 0.48234721 0.00000000
1.00000000 0.48234721 0.00000000
1.00000000 0.48234721 0.00000000
1.00000000 0.48234721 0.00000000
1.00000000 0.48234721 0.00000000
1.00000000 0.48234721 0.00000000
1.00000000 0.48234721 0.00000000
1.00000000 0.48234721 0.00000000
1.00000000 0.48234721 0.00000000
1.00000000 0.48234721 0.00000000
0.00000000 0.58652279 0.00000000
0.00000000 0.58652279 0.00000000
0.00000000 0.58652279 0.00000000
0.00000000 0.58652279 0.00000000
0.00000000 0.58652279 0.00000000
0.00000000 0.58652279 0.00000000
0.00000000 0.58652279 0.00000000
0.00000000 0.58652279 0.00000000
0.00597395 0.58652279 0.00000000
0.01925353 0.58652279 0.00000000
0.03827785 0.58652279 0.00000000
0.06553204 0.58652279 0.00000000
0.10320745 0.58652279 0.00000000
0.14620507 0.58652279 0.00000000
0.19521869 0.58652279 0.00000000
0.25166881 0.58652279 0.00000000
0.31711701 0.58652279 0.00000000
0.39333178 0.58652279 0.00000000
0.48234721 0.58652279 0.00000000
0.58652279 0.58652279 0.00000000
0.70860901 0.58652279 0.00000000
0.85182160 0.58652279 0.00000000
1.00000000 0.58652279 0.00000000
1.00000000 0.58652279 0.00000000
1.00000000 0.58652279 0.00000000
1.00000000 0.58652279 0.00000000
1.00000000 0.58652279 0.00000000
1.00000000 0.58652279 0.00000000
1.00000000 0.58652279 0.00000000
1.00000000 0.58652279 0.00000000
1.00000000 0.58652279 0.00000000
1.00000000 0.58652279 0.00000000
1.00000000 0.58652279 0.00000000
0.00000000 0.70860901 0.00000000
0.00000000 0.70860901 0.00000000
0.00000000 0.70860901 0.00000000
0.00000000 0.70860901 0.00000000
0.00000000 0.70860901 0.00000000
0.00000000 0.70860901 0.00000000
0.00000000 0.70860901 0.00000000
0.00000000 0.70860901 0.00000000
0.00597395 0.70860901 0.00000000
0.01925353 0.70860901 0.00000000
0.03827785 0.70860901 0.00000000
0.06553204 0.70860901 0.00000000
0.10320745 0.70860901 0.00000000
0.14620507 0.70860901 0.00000000
0.19521869 0.70860901 0.00000000
0.25166881 0.70860901 0.00000000
0.31711701 0.70860901 0.00000000
0.39333178 0.70860901 0.00000000
0.48234721 0.70860901 0.00000000
0.58652279 0.70860901 0.00000000
0.70860901 0.70860901 0.00000000
0.85182160 0.70860901 0.00000000
1.00000000 0.70860901 0.00000000
1.00000000 0.70860901 0.00000000
1.00000000 0.70860901 0.00000000
1.00000000 0.70860901 0.00000000
1.00000000 0.70860901 0.00000000
1.00000000 0.70860901 0.00000000
1.00000000 0.70860901 0.00000000
1.00000000 0.70860901 0.00000000
1.00000000 0.70860901 0.00000000
1.00000000 0.70860901 0.00000000
1.00000000 0.70860901 0.00000000
0.00000000 0.85182160 0.00000000
0.00000000 0.85182160 0.00000000
0.00000000 0.85182160 0.00000000
0.00000000 0.85182160 0.00000000
0.00000000 0.85182160 0.00000000
0.00000000 0.85182160 0.00000000
0.00000000 0.85182160 0.00000000
0.00000000 0.85182160 0.00000000
0.00597395 0.85182160 0.00000000
0.01925353 0.85182160 0.00000000
0.03827785 0.85182160 0.00000000
0.06553204 0.85182160 0.00000000
0.10320745 0.85182160 0.00000000
0.14620507 0.85182160 0.00000000
0.19521869 0.85182160 0.00000000
0.25166881 0.85182160 0.00000000
0.31711701 0.85182160 0.00000000
0.39333178 0.85182160 0.00000000
0.48234721 0.85182160 0.00000000
0.58652279 0.85182160 0.00000000
0.70860901 0.85182160 0.00000000
0.85182160 0.85182160 0.00000000
1.00000000 0.85182160 0.00000000
1.00000000 0.85182160 0.00000000
1.00000000 0.85182160 0.00000000
1.00000000 0.85182160 0.00000000
1.00000000 0.85182160 0.00000000
1.00000000 0.85182160 0.00000000
1.00000000 0.85182160 0.00000000
1.00000000 0.85182160 0.00000000
1.00000000 0.85182160 0.00000000
1.00000000 0.85182160 0.00000000
1.00000000 0.85182160 0.00000000
