packages/ingest-daemon/Resources/LUTs/red_ipp2_rec709.cube
LUT_3D_SIZE 5
0.00000000 0.00000000 0.00000000
0.24782261 0.00000000 0.00000000
1.00000000 0.00000000 0.00000000
1.00000000 0.00000000 0.00000000
1.00000000 0.00000000 0.00000000
0.00000000 0.24782261 0.00000000
0.24782261 0.24782261 0.00000000
1.00000000 0.24782261 0.00000000
1.00000000 0.24782261 0.00000000
1.00000000 0.24782261 0.00000000
0.00000000 1.00000000 0.00000000
0.24782261 1.00000000 0.00000000
1.00000000 1.00000000 0.00000000
1.00000000 1.00000000 0.00000000
1.00000000 1.00000000 0.00000000
0.00000000 1.00000000 0.00000000
0.24782261 1.00000000 0.00000000
1.00000000 1.00000000 0.00000000
1.00000000 1.00000000 0.00000000
1.00000000 1.00000000 0.00000000
0.00000000 1.00000000 0.00000000
0.24782261 1.00000000 0.00000000
1.00000000 1.00000000 0.00000000
1.00000000 1.00000000 0.00000000
1.00000000 1.00000000 0.00000000
0.00000000 0.00000000 0.24782261
0.24782261 0.00000000 0.24782261
1.00000000 0.00000000 0.24782261
1.00000000 0.00000000 0.24782261
1.00000000 0.00000000 0.24782261
0.00000000 0.24782261 0.24782261
0.24782261 0.24782261 0.24782261
1.00000000 0.24782261 0.24782261
1.00000000 0.24782261 0.24782261
1.00000000 0.24782261 0.24782261
0.00000000 1.00000000 0.24782261
0.24782261 1.00000000 0.24782261
1.00000000 1.00000000 0.24782261
1.00000000 1.00000000 0.24782261
1.00000000 1.00000000 0.24782261
0.00000000 1.00000000 0.24782261
0.24782261 1.00000000 0.24782261
1.00000000 1.00000000 0.24782261
1.00000000 1.00000000 0.24782261
1.00000000 1.00000000 0.24782261
0.00000000 1.00000000 0.24782261
0.24782261 1.00000000 0.24782261
1.00000000 1.00000000 0.24782261
1.00000000 1.00000000 0.24782261
1.00000000 1.00000000 0.24782261
0.00000000 0.00000000 1.00000000
0.24782261 0.00000000 1.00000000
1.00000000 0.00000000 1.00000000
1.00000000 0.00000000 1.00000000
1.00000000 0.00000000 1.00000000
0.00000000 0.24782261 1.00000000
0.24782261 0.24782261 1.00000000
1.00000000 0.24782261 1.00000000
1.00000000 0.24782261 1.00000000
1.00000000 0.24782261 1.00000000
0.00000000 1.00000000 1.00000000
0.24782261 1.00000000 1.00000000
1.00000000 1.00000000 1.00000000
1.00000000 1.00000000 1.00000000
1.00000000 1.00000000 1.00000000
0.00000000 1.00000000 1.00000000
0.24782261 1.00000000 1.00000000
1.00000000 1.00000000 1.00000000
1.00000000 1.00000000 1.00000000
1.00000000 1.00000000 1.00000000
0.00000000 1.00000000 1.00000000
0.24782261 1.00000000 1.00000000
1.00000000 1.00000000 1.00000000
1.00000000 1.00000000 1.00000000
1.00000000 1.00000000 1.00000000
0.00000000 0.00000000 1.00000000
0.24782261 0.00000000 1.00000000
1.00000000 0.00000000 1.00000000
1.00000000 0.00000000 1.00000000
1.00000000 0.00000000 1.00000000
0.00000000 0.24782261 1.00000000
0.24782261 0.24782261 1.00000000
1.00000000 0.24782261 1.00000000
1.00000000 0.24782261 1.00000000
1.00000000 0.24782261 1.00000000
0.00000000 1.00000000 1.00000000
0.24782261 1.00000000 1.00000000
1.00000000 1.00000000 1.00000000
1.00000000 1.00000000 1.00000000
1.00000000 1.00000000 1.00000000
0.00000000 1.00000000 1.00000000
0.24782261 1.00000000 1.00000000
1.00000000 1.00000000 1.00000000
1.00000000 1.00000000 1.00000000
1.00000000 1.00000000 1.00000000
0.00000000 1.00000000 1.00000000
0.24782261 1.00000000 1.00000000
1.00000000 1.00000000 1.00000000
1.00000000 1.00000000 1.00000000
1.00000000 1.00000000 1.00000000
0.00000000 0.00000000 1.00000000
0.24782261 0.00000000 1.00000000
1.00000000 0.00000000 1.00000000
1.00000000 0.00000000 1.00000000
1.00000000 0.00000000 1.00000000
0.00000000 0.24782261 1.00000000
0.24782261 0.24782261 1.00000000
1.00000000 0.24782261 1.00000000
1.00000000 0.24782261 1.00000000
1.00000000 0.24782261 1.00000000
0.00000000 1.00000000 1.00000000
0.24782261 1.00000000 1.00000000
1.00000000 1.00000000 1.00000000
1.00000000 1.00000000 1.00000000
1.00000000 1.00000000 1.00000000
0.00000000 1.00000000 1.00000000
0.24782261 1.00000000 1.00000000
1.00000000 1.00000000 1.00000000
1.00000000 1.00000000 1.00000000
1.00000000 1.00000000 1.00000000
0.00000000 1.00000000 1.00000000
0.24782261 1.00000000 1.00000000
1.00000000 1.00000000 1.00000000
1.00000000 1.00000000 1.00000000
1.00000000 1.00000000 1.00000000
