packages/ingest-daemon/Resources/LUTs/red_ipp2_rec709.cube
LUT_3D_SIZE 9
0.00000000 0.00000000 0.00000000
0.07525886 0.00000000 0.00000000
0.24782261 0.00000000 0.00000000
0.53533633 0.00000000 0.00000000
1.00000000 0.00000000 0.00000000
1.00000000 0.00000000 0.00000000
1.00000000 0.00000000 0.00000000
1.00000000 0.00000000 0.00000000
1.00000000 0.00000000 0.00000000
0.00000000 0.07525886 0.00000000
0.07525886 0.07525886 0.00000000
0.24782261 0.07525886 0.00000000
0.53533633 0.07525886 0.00000000
1.00000000 0.07525886 0.00000000
1.00000000 0.07525886 0.00000000
1.00000000 0.07525886 0.00000000
1.00000000 0.07525886 0.00000000
1.00000000 0.07525886 0.00000000
0.00000000 0.24782261 0.00000000
0.07525886 0.24782261 0.00000000
0.24782261 0.24782261 0.00000000
0.53533633 0.24782261 0.00000000
1.00000000 0.24782261 0.00000000
1.00000000 0.24782261 0.00000000
1.00000000 0.24782261 0.00000000
1.00000000 0.24782261 0.00000000
1.00000000 0.24782261 0.00000000
0.00000000 0.53533633 0.00000000
0.07525886 0.53533633 0.00000000
0.24782261 0.53533633 0.00000000
0.53533633 0.53533633 0.00000000
1.00000000 0.53533633 0.00000000
1.00000000 0.53533633 0.00000000
1.00000000 0.53533633 0.00000000
1.00000000 0.53533633 0.00000000
1.00000000 0.53533633 0.00000000
0.00000000 1.00000000 0.00000000
0.07525886 1.00000000 0.00000000
0.24782261 1.00000000 0.00000000
0.53533633 1.00000000 0.00000000
1.00000000 1.00000000 0.00000000
1.00000000 1.00000000 0.00000000
1.00000000 1.00000000 0.00000000
1.00000000 1.00000000 0.00000000
1.00000000 1.00000000 0.00000000
0.00000000 1.00000000 0.00000000
0.07525886 1.00000000 0.00000000
0.24782261 1.00000000 0.00000000
0.53533633 1.00000000 0.00000000
1.00000000 1.00000000 0.00000000
1.00000000 1.00000000 0.00000000
1.00000000 1.00000000 0.00000000
1.00000000 1.00000000 0.00000000
1.00000000 1.00000000 0.00000000
0.00000000 1.00000000 0.00000000
0.07525886 1.00000000 0.00000000
0.24782261 1.00000000 0.00000000
0.53533633 1.00000000 0.00000000
1.00000000 1.00000000 0.00000000
1.00000000 1.00000000 0.00000000
1.00000000 1.00000000 0.00000000
1.00000000 1.00000000 0.00000000
1.00000000 1.00000000 0.00000000
0.00000000 1.00000000 0.00000000
0.07525886 1.00000000 0.00000000
0.24782261 1.00000000 0.00000000
0.53533633 1.00000000 0.00000000
1.00000000 1.00000000 0.00000000
1.00000000 1.00000000 0.00000000
1.00000000 1.00000000 0.00000000
1.00000000 1.00000000 0.00000000
1.00000000 1.00000000 0.00000000
0.00000000 1.00000000 0.00000000
0.07525886 1.00000000 0.00000000
0.24782261 1.00000000 0.00000000
0.53533633 1.00000000 0.00000000
1.00000000 1.00000000 0.00000000
1.00000000 1.00000000 0.00000000
1.00000000 1.00000000 0.00000000
1.00000000 1.00000000 0.00000000
1.00000000 1.00000000 0.00000000
0.00000000 0.00000000 0.07525886
0.07525886 0.00000000 0.07525886
0.24782261 0.00000000 0.07525886
0.53533633 0.00000000 0.07525886
1.00000000 0.00000000 0.07525886
1.00000000 0.00000000 0.07525886
1.00000000 0.00000000 0.07525886
1.00000000 0.00000000 0.07525886
1.00000000 0.00000000 0.07525886
0.00000000 0.07525886 0.07525886
0.07525886 0.07525886 0.07525886
0.24782261 0.07525886 0.07525886
0.53533633 0.07525886 0.07525886
1.00000000 0.07525886 0.07525886
1.00000000 0.07525886 0.07525886
1.00000000 0.07525886 0.07525886
1.00000000 0.07525886 0.07525886
1.00000000 0.07525886 0.07525886
0.00000000 0.24782261 0.07525886
0.07525886 0.24782261 0.07525886
0.24782261 0.24782261 0.07525886
0.53533633 0.24782261 0.07525886
1.00000000 0.24782261 0.07525886
1.00000000 0.24782261 0.07525886
1.00000000 0.24782261 0.07525886
1.00000000 0.24782261 0.07525886
1.00000000 0.24782261 0.07525886
0.00000000 0.53533633 0.07525886
0.07525886 0.53533633 0.07525886
0.24782261 0.53533633 0.07525886
0.53533633 0.53533633 0.07525886
1.00000000 0.53533633 0.07525886
1.00000000 0.53533633 0.07525886
1.00000000 0.53533633 0.07525886
1.00000000 0.53533633 0.07525886
1.00000000 0.53533633 0.07525886
0.00000000 1.00000000 0.07525886
0.07525886 1.00000000 0.07525886
0.24782261 1.00000000 0.07525886
0.53533633 1.00000000 0.07525886
1.00000000 1.00000000 0.07525886
1.00000000 1.00000000 0.07525886
1.00000000 1.00000000 0.07525886
1.00000000 1.00000000 0.07525886
1.00000000 1.00000000 0.07525886
0.00000000 1.00000000 0.07525886
0.07525886 1.00000000 0.07525886
0.24782261 1.00000000 0.07525886
0.53533633 1.00000000 0.07525886
1.00000000 1.00000000 0.07525886
1.00000000 1.00000000 0.07525886
1.00000000 1.00000000 0.07525886
1.00000000 1.00000000 0.07525886
1.00000000 1.00000000 0.07525886
0.00000000 1.00000000 0.07525886
0.07525886 1.00000000 0.07525886
0.24782261 1.00000000 0.07525886
0.53533633 1.00000000 0.07525886
1.00000000 1.00000000 0.07525886
1.00000000 1.00000000 0.07525886
1.00000000 1.00000000 0.07525886
1.00000000 1.00000000 0.07525886
1.00000000 1.00000000 0.07525886
0.00000000 1.00000000 0.07525886
0.07525886 1.00000000 0.07525886
0.24782261 1.00000000 0.07525886
0.53533633 1.00000000 0.07525886
1.00000000 1.00000000 0.07525886
1.00000000 1.00000000 0.07525886
1.00000000 1.00000000 0.07525886
1.00000000 1.00000000 0.07525886
1.00000000 1.00000000 0.07525886
0.00000000 1.00000000 0.07525886
0.07525886 1.00000000 0.07525886
0.24782261 1.00000000 0.07525886
0.53533633 1.00000000 0.07525886
1.00000000 1.00000000 0.07525886
1.00000000 1.00000000 0.07525886
1.00000000 1.00000000 0.07525886
1.00000000 1.00000000 0.07525886
1.00000000 1.00000000 0.07525886
0.00000000 0.00000000 0.24782261
0.07525886 0.00000000 0.24782261
0.24782261 0.00000000 0.24782261
0.53533633 0.00000000 0.24782261
1.00000000 0.00000000 0.24782261
1.00000000 0.00000000 0.24782261
1.00000000 0.00000000 0.24782261
1.00000000 0.00000000 0.24782261
1.00000000 0.00000000 0.24782261
0.00000000 0.07525886 0.24782261
0.07525886 0.07525886 0.24782261
0.24782261 0.07525886 0.24782261
0.53533633 0.07525886 0.24782261
1.00000000 0.07525886 0.24782261
1.00000000 0.07525886 0.24782261
1.00000000 0.07525886 0.24782261
1.00000000 0.07525886 0.24782261
1.00000000 0.07525886 0.24782261
0.00000000 0.24782261 0.24782261
0.07525886 0.24782261 0.24782261
0.24782261 0.24782261 0.24782261
0.53533633 0.24782261 0.24782261
1.00000000 0.24782261 0.24782261
1.00000000 0.24782261 0.24782261
1.00000000 0.24782261 0.24782261
1.00000000 0.24782261 0.24782261
1.00000000 0.24782261 0.24782261
0.00000000 0.53533633 0.24782261
0.07525886 0.53533633 0.24782261
0.24782261 0.53533633 0.24782261
0.53533633 0.53533633 0.24782261
1.00000000 0.53533633 0.24782261
1.00000000 0.53533633 0.24782261
1.00000000 0.53533633 0.24782261
1.00000000 0.53533633 0.24782261
1.00000000 0.53533633 0.24782261
0.00000000 1.00000000 0.24782261
0.07525886 1.00000000 0.24782261
0.24782261 1.00000000 0.24782261
0.53533633 1.00000000 0.24782261
1.00000000 1.00000000 0.24782261
1.00000000 1.00000000 0.24782261
1.00000000 1.00000000 0.24782261
1.00000000 1.00000000 0.24782261
1.00000000 1.00000000 0.24782261
0.00000000 1.00000000 0.24782261
0.07525886 1.00000000 0.24782261
0.24782261 1.00000000 0.24782261
0.53533633 1.00000000 0.24782261
1.00000000 1.00000000 0.24782261
1.00000000 1.00000000 0.24782261
1.00000000 1.00000000 0.24782261
1.00000000 1.00000000 0.24782261
1.00000000 1.00000000 0.24782261
0.00000000 1.00000000 0.24782261
0.07525886 1.00000000 0.24782261
0.24782261 1.00000000 0.24782261
0.53533633 1.00000000 0.24782261
1.00000000 1.00000000 0.24782261
1.00000000 1.00000000 0.24782261
1.00000000 1.00000000 0.24782261
1.00000000 1.00000000 0.24782261
1.00000000 1.00000000 0.24782261
0.00000000 1.00000000 0.24782261
0.07525886 1.00000000 0.24782261
0.24782261 1.00000000 0.24782261
0.53533633 1.00000000 0.24782261
1.00000000 1.00000000 0.24782261
1.00000000 1.00000000 0.24782261
1.00000000 1.00000000 0.24782261
1.00000000 1.00000000 0.24782261
1.00000000 1.00000000 0.24782261
0.00000000 1.00000000 0.24782261
0.07525886 1.00000000 0.24782261
0.24782261 1.00000000 0.24782261
0.53533633 1.00000000 0.24782261
1.00000000 1.00000000 0.24782261
1.00000000 1.00000000 0.24782261
1.00000000 1.00000000 0.24782261
1.00000000 1.00000000 0.24782261
1.00000000 1.00000000 0.24782261
0.00000000 0.00000000 0.53533633
0.07525886 0.00000000 0.53533633
0.24782261 0.00000000 0.53533633
0.53533633 0.00000000 0.53533633
1.00000000 0.00000000 0.53533633
1.00000000 0.00000000 0.53533633
1.00000000 0.00000000 0.53533633
1.00000000 0.00000000 0.53533633
1.00000000 0.00000000 0.53533633
0.00000000 0.07525886 0.53533633
0.07525886 0.07525886 0.53533633
0.24782261 0.07525886 0.53533633
0.53533633 0.07525886 0.53533633
1.00000000 0.07525886 0.53533633
1.00000000 0.07525886 0.53533633
1.00000000 0.07525886 0.53533633
1.00000000 0.07525886 0.53533633
1.00000000 0.07525886 0.53533633
0.00000000 0.24782261 0.53533633
0.07525886 0.24782261 0.53533633
0.24782261 0.24782261 0.53533633
0.53533633 0.24782261 0.53533633
1.00000000 0.24782261 0.53533633
1.00000000 0.24782261 0.53533633
1.00000000 0.24782261 0.53533633
1.00000000 0.24782261 0.53533633
1.00000000 0.24782261 0.53533633
0.00000000 0.53533633 0.53533633
0.07525886 0.53533633 0.53533633
0.24782261 0.53533633 0.53533633
0.53533633 0.53533633 0.53533633
1.00000000 0.53533633 0.53533633
1.00000000 0.53533633 0.53533633
1.00000000 0.53533633 0.53533633
1.00000000 0.53533633 0.53533633
1.00000000 0.53533633 0.53533633
0.00000000 1.00000000 0.53533633
0.07525886 1.00000000 0.53533633
0.24782261 1.00000000 0.53533633
0.53533633 1.00000000 0.53533633
1.00000000 1.00000000 0.53533633
1.00000000 1.00000000 0.53533633
1.00000000 1.00000000 0.53533633
1.00000000 1.00000000 0.53533633
1.00000000 1.00000000 0.53533633
0.00000000 1.00000000 0.53533633
0.07525886 1.00000000 0.53533633
0.24782261 1.00000000 0.53533633
0.53533633 1.00000000 0.53533633
1.00000000 1.00000000 0.53533633
1.00000000 1.00000000 0.53533633
1.00000000 1.00000000 0.53533633
1.00000000 1.00000000 0.53533633
1.00000000 1.00000000 0.53533633
0.00000000 1.00000000 0.53533633
0.07525886 1.00000000 0.53533633
0.24782261 1.00000000 0.53533633
0.53533633 1.00000000 0.53533633
1.00000000 1.00000000 0.53533633
1.00000000 1.00000000 0.53533633
1.00000000 1.00000000 0.53533633
1.00000000 1.00000000 0.53533633
1.00000000 1.00000000 0.53533633
0.00000000 1.00000000 0.53533633
0.07525886 1.00000000 0.53533633
0.24782261 1.00000000 0.53533633
0.53533633 1.00000000 0.53533633
1.00000000 1.00000000 0.53533633
1.00000000 1.00000000 0.53533633
1.00000000 1.00000000 0.53533633
1.00000000 1.00000000 0.53533633
1.00000000 1.00000000 0.53533633
0.00000000 1.00000000 0.53533633
0.07525886 1.00000000 0.53533633
0.24782261 1.00000000 0.53533633
0.53533633 1.00000000 0.53533633
1.00000000 1.00000000 0.53533633
1.00000000 1.00000000 0.53533633
1.00000000 1.00000000 0.53533633
1.00000000 1.00000000 0.53533633
1.00000000 1.00000000 0.53533633
0.00000000 0.00000000 1.00000000
0.07525886 0.00000000 1.00000000
0.24782261 0.00000000 1.00000000
0.53533633 0.00000000 1.00000000
1.00000000 0.00000000 1.00000000
1.00000000 0.00000000 1.00000000
1.00000000 0.00000000 1.00000000
1.00000000 0.00000000 1.00000000
1.00000000 0.00000000 1.00000000
0.00000000 0.07525886 1.00000000
0.07525886 0.07525886 1.00000000
0.24782261 0.07525886 1.00000000
0.53533633 0.07525886 1.00000000
1.00000000 0.07525886 1.00000000
1.00000000 0.07525886 1.00000000
1.00000000 0.07525886 1.00000000
1.00000000 0.07525886 1.00000000
1.00000000 0.07525886 1.00000000
0.00000000 0.24782261 1.00000000
0.07525886 0.24782261 1.00000000
0.24782261 0.24782261 1.00000000
0.53533633 0.24782261 1.00000000
1.00000000 0.24782261 1.00000000
1.00000000 0.24782261 1.00000000
1.00000000 0.24782261 1.00000000
1.00000000 0.24782261 1.00000000
1.00000000 0.24782261 1.00000000
0.00000000 0.53533633 1.00000000
0.07525886 0.53533633 1.00000000
0.24782261 0.53533633 1.00000000
0.53533633 0.53533633 1.00000000
1.00000000 0.53533633 1.00000000
1.00000000 0.53533633 1.00000000
1.00000000 0.53533633 1.00000000
1.00000000 0.53533633 1.00000000
1.00000000 0.53533633 1.00000000
0.00000000 1.00000000 1.00000000
0.07525886 1.00000000 1.00000000
0.24782261 1.00000000 1.00000000
0.53533633 1.00000000 1.00000000
1.00000000 1.00000000 1.00000000
1.00000000 1.00000000 1.00000000
1.00000000 1.00000000 1.00000000
1.00000000 1.00000000 1.00000000
1.00000000 1.00000000 1.00000000
0.00000000 1.00000000 1.00000000
0.07525886 1.00000000 1.00000000
0.24782261 1.00000000 1.00000000
0.53533633 1.00000000 1.00000000
1.00000000 1.00000000 1.00000000
1.00000000 1.00000000 1.00000000
1.00000000 1.00000000 1.00000000
1.00000000 1.00000000 1.00000000
1.00000000 1.00000000 1.00000000
0.00000000 1.00000000 1.00000000
0.07525886 1.00000000 1.00000000
0.24782261 1.00000000 1.00000000
0.53533633 1.00000000 1.00000000
1.00000000 1.00000000 1.00000000
1.00000000 1.00000000 1.00000000
1.00000000 1.00000000 1.00000000
1.00000000 1.00000000 1.00000000
1.00000000 1.00000000 1.00000000
0.00000000 1.00000000 1.00000000
0.07525886 1.00000000 1.00000000
0.24782261 1.00000000 1.00000000
0.53533633 1.00000000 1.00000000
1.00000000 1.00000000 1.00000000
1.00000000 1.00000000 1.00000000
1.00000000 1.00000000 1.00000000
1.00000000 1.00000000 1.00000000
1.00000000 1.00000000 1.00000000
0.00000000 1.00000000 1.00000000
0.07525886 1.00000000 1.00000000
0.24782261 1.00000000 1.00000000
0.53533633 1.00000000 1.00000000
1.00000000 1.00000000 1.00000000
1.00000000 1.00000000 1.00000000
1.00000000 1.00000000 1.00000000
1.00000000 1.00000000 1.00000000
1.00000000 1.00000000 1.00000000
0.00000000 0.00000000 1.00000000
0.07525886 0.00000000 1.00000000
0.24782261 0.00000000 1.00000000
0.53533633 0.00000000 1.00000000
1.00000000 0.00000000 1.00000000
1.00000000 0.00000000 1.00000000
1.00000000 0.00000000 1.00000000
1.00000000 0.00000000 1.00000000
1.00000000 0.00000000 1.00000000
0.00000000 0.07525886 1.00000000
0.07525886 0.07525886 1.00000000
0.24782261 0.07525886 1.00000000
0.53533633 0.07525886 1.00000000
1.00000000 0.07525886 1.00000000
1.00000000 0.07525886 1.00000000
1.00000000 0.07525886 1.00000000
1.00000000 0.07525886 1.00000000
1.00000000 0.07525886 1.00000000
0.00000000 0.24782261 1.00000000
0.07525886 0.24782261 1.00000000
0.24782261 0.24782261 1.00000000
0.53533633 0.24782261 1.00000000
1.00000000 0.24782261 1.00000000
1.00000000 0.24782261 1.00000000
1.00000000 0.24782261 1.00000000
1.00000000 0.24782261 1.00000000
1.00000000 0.24782261 1.00000000
0.00000000 0.53533633 1.00000000
0.07525886 0.53533633 1.00000000
0.24782261 0.53533633 1.00000000
0.53533633 0.53533633 1.00000000
1.00000000 0.53533633 1.00000000
1.00000000 0.53533633 1.00000000
1.00000000 0.53533633 1.00000000
1.00000000 0.53533633 1.00000000
1.00000000 0.53533633 1.00000000
0.00000000 1.00000000 1.00000000
0.07525886 1.00000000 1.00000000
0.24782261 1.00000000 1.00000000
0.53533633 1.00000000 1.00000000
1.00000000 1.00000000 1.00000000
1.00000000 1.00000000 1.00000000
1.00000000 1.00000000 1.00000000
1.00000000 1.00000000 1.00000000
1.00000000 1.00000000 1.00000000
0.00000000 1.00000000 1.00000000
0.07525886 1.00000000 1.00000000
0.24782261 1.00000000 1.00000000
0.53533633 1.00000000 1.00000000
1.00000000 1.00000000 1.00000000
1.00000000 1.00000000 1.00000000
1.00000000 1.00000000 1.00000000
1.00000000 1.00000000 1.00000000
1.00000000 1.00000000 1.00000000
0.00000000 1.00000000 1.00000000
0.07525886 1.00000000 1.00000000
0.24782261 1.00000000 1.00000000
0.53533633 1.00000000 1.00000000
1.00000000 1.00000000 1.00000000
1.00000000 1.00000000 1.00000000
1.00000000 1.00000000 1.00000000
1.00000000 1.00000000 1.00000000
1.00000000 1.00000000 1.00000000
0.00000000 1.00000000 1.00000000
0.07525886 1.00000000 1.00000000
0.24782261 1.00000000 1.00000000
0.53533633 1.00000000 1.00000000
1.00000000 1.00000000 1.00000000
1.00000000 1.00000000 1.00000000
1.00000000 1.00000000 1.00000000
1.00000000 1.00000000 1.00000000
1.00000000 1.00000000 1.00000000
0.00000000 1.00000000 1.00000000
0.07525886 1.00000000 1.00000000
0.24782261 1.00000000 1.00000000
0.53533633 1.00000000 1.00000000
1.00000000 1.00000000 1.00000000
1.00000000 1.00000000 1.00000000
1.00000000 1.00000000 1.00000000
1.00000000 1.00000000 1.00000000
1.00000000 1.00000000 1.00000000
0.00000000 0.00000000 1.00000000
0.07525886 0.00000000 1.00000000
0.24782261 0.00000000 1.00000000
0.53533633 0.00000000 1.00000000
1.00000000 0.00000000 1.00000000
1.00000000 0.00000000 1.00000000
1.00000000 0.00000000 1.00000000
1.00000000 0.00000000 1.00000000
1.00000000 0.00000000 1.00000000
0.00000000 0.07525886 1.00000000
0.07525886 0.07525886 1.00000000
0.24782261 0.07525886 1.00000000
0.53533633 0.07525886 1.00000000
1.00000000 0.07525886 1.00000000
1.00000000 0.07525886 1.00000000
1.00000000 0.07525886 1.00000000
1.00000000 0.07525886 1.00000000
1.00000000 0.07525886 1.00000000
0.00000000 0.24782261 1.00000000
0.07525886 0.24782261 1.00000000
0.24782261 0.24782261 1.00000000
0.53533633 0.24782261 1.00000000
1.00000000 0.24782261 1.00000000
1.00000000 0.24782261 1.00000000
1.00000000 0.24782261 1.00000000
1.00000000 0.24782261 1.00000000
1.00000000 0.24782261 1.00000000
0.00000000 0.53533633 1.00000000
0.07525886 0.53533633 1.00000000
0.24782261 0.53533633 1.00000000
0.53533633 0.53533633 1.00000000
1.00000000 0.53533633 1.00000000
1.00000000 0.53533633 1.00000000
1.00000000 0.53533633 1.00000000
1.00000000 0.53533633 1.00000000
1.00000000 0.53533633 1.00000000
0.00000000 1.00000000 1.00000000
0.07525886 1.00000000 1.00000000
0.24782261 1.00000000 1.00000000
0.53533633 1.00000000 1.00000000
1.00000000 1.00000000 1.00000000
1.00000000 1.00000000 1.00000000
1.00000000 1.00000000 1.00000000
1.00000000 1.00000000 1.00000000
1.00000000 1.00000000 1.00000000
0.00000000 1.00000000 1.00000000
0.07525886 1.00000000 1.00000000
0.24782261 1.00000000 1.00000000
0.53533633 1.00000000 1.00000000
1.00000000 1.00000000 1.00000000
1.00000000 1.00000000 1.00000000
1.00000000 1.00000000 1.00000000
1.00000000 1.00000000 1.00000000
1.00000000 1.00000000 1.00000000
0.00000000 1.00000000 1.00000000
0.07525886 1.00000000 1.00000000
0.24782261 1.00000000 1.00000000
0.53533633 1.00000000 1.00000000
1.00000000 1.00000000 1.00000000
1.00000000 1.00000000 1.00000000
1.00000000 1.00000000 1.00000000
1.00000000 1.00000000 1.00000000
1.00000000 1.00000000 1.00000000
0.00000000 1.00000000 1.00000000
0.07525886 1.00000000 1.00000000
0.24782261 1.00000000 1.00000000
0.53533633 1.00000000 1.00000000
1.00000000 1.00000000 1.00000000
1.00000000 1.00000000 1.00000000
1.00000000 1.00000000 1.00000000
1.00000000 1.00000000 1.00000000
1.00000000 1.00000000 1.00000000
0.00000000 1.00000000 1.00000000
0.07525886 1.00000000 1.00000000
0.24782261 1.00000000 1.00000000
0.53533633 1.00000000 1.00000000
1.00000000 1.00000000 1.00000000
1.00000000 1.00000000 1.00000000
1.00000000 1.00000000 1.00000000
1.00000000 1.00000000 1.00000000
1.00000000 1.00000000 1.00000000
0.00000000 0.00000000 1.00000000
0.07525886 0.00000000 1.00000000
0.24782261 0.00000000 1.00000000
0.53533633 0.00000000 1.00000000
1.00000000 0.00000000 1.00000000
1.00000000 0.00000000 1.00000000
1.00000000 0.00000000 1.00000000
1.00000000 0.00000000 1.00000000
1.00000000 0.00000000 1.00000000
0.00000000 0.07525886 1.00000000
0.07525886 0.07525886 1.00000000
0.24782261 0.07525886 1.00000000
0.53533633 0.07525886 1.00000000
1.00000000 0.07525886 1.00000000
1.00000000 0.07525886 1.00000000
1.00000000 0.07525886 1.00000000
1.00000000 0.07525886 1.00000000
1.00000000 0.07525886 1.00000000
0.00000000 0.24782261 1.00000000
0.07525886 0.24782261 1.00000000
0.24782261 0.24782261 1.00000000
0.53533633 0.24782261 1.00000000
1.00000000 0.24782261 1.00000000
1.00000000 0.24782261 1.00000000
1.00000000 0.24782261 1.00000000
1.00000000 0.24782261 1.00000000
1.00000000 0.24782261 1.00000000
0.00000000 0.53533633 1.00000000
0.07525886 0.53533633 1.00000000
0.24782261 0.53533633 1.00000000
0.53533633 0.53533633 1.00000000
1.00000000 0.53533633 1.00000000
1.00000000 0.53533633 1.00000000
1.00000000 0.53533633 1.00000000
1.00000000 0.53533633 1.00000000
1.00000000 0.53533633 1.00000000
0.00000000 1.00000000 1.00000000
0.07525886 1.00000000 1.00000000
0.24782261 1.00000000 1.00000000
0.53533633 1.00000000 1.00000000
1.00000000 1.00000000 1.00000000
1.00000000 1.00000000 1.00000000
1.00000000 1.00000000 1.00000000
1.00000000 1.00000000 1.00000000
1.00000000 1.00000000 1.00000000
0.00000000 1.00000000 1.00000000
0.07525886 1.00000000 1.00000000
0.24782261 1.00000000 1.00000000
0.53533633 1.00000000 1.00000000
1.00000000 1.00000000 1.00000000
1.00000000 1.00000000 1.00000000
1.00000000 1.00000000 1.00000000
1.00000000 1.00000000 1.00000000
1.00000000 1.00000000 1.00000000
0.00000000 1.00000000 1.00000000
0.07525886 1.00000000 1.00000000
0.24782261 1.00000000 1.00000000
0.53533633 1.00000000 1.00000000
1.00000000 1.00000000 1.00000000
1.00000000 1.00000000 1.00000000
1.00000000 1.00000000 1.00000000
1.00000000 1.00000000 1.00000000
1.00000000 1.00000000 1.00000000
0.00000000 1.00000000 1.00000000
0.07525886 1.00000000 1.00000000
0.24782261 1.00000000 1.00000000
0.53533633 1.00000000 1.00000000
1.00000000 1.00000000 1.00000000
1.00000000 1.00000000 1.00000000
1.00000000 1.00000000 1.00000000
1.00000000 1.00000000 1.00000000
1.00000000 1.00000000 1.00000000
0.00000000 1.00000000 1.00000000
0.07525886 1.00000000 1.00000000
0.24782261 1.00000000 1.00000000
0.53533633 1.00000000 1.00000000
1.00000000 1.00000000 1.00000000
1.00000000 1.00000000 1.00000000
1.00000000 1.00000000 1.00000000
1.00000000 1.00000000 1.00000000
1.00000000 1.00000000 1.00000000
0.00000000 0.00000000 1.00000000
0.07525886 0.00000000 1.00000000
0.24782261 0.00000000 1.00000000
0.53533633 0.00000000 1.00000000
1.00000000 0.00000000 1.00000000
1.00000000 0.00000000 1.00000000
1.00000000 0.00000000 1.00000000
1.00000000 0.00000000 1.00000000
1.00000000 0.00000000 1.00000000
0.00000000 0.07525886 1.00000000
0.07525886 0.07525886 1.00000000
0.24782261 0.07525886 1.00000000
0.53533633 0.07525886 1.00000000
1.00000000 0.07525886 1.00000000
1.00000000 0.07525886 1.00000000
1.00000000 0.07525886 1.00000000
1.00000000 0.07525886 1.00000000
1.00000000 0.07525886 1.00000000
0.00000000 0.24782261 1.00000000
0.07525886 0.24782261 1.00000000
0.24782261 0.24782261 1.00000000
0.53533633 0.24782261 1.00000000
1.00000000 0.24782261 1.00000000
1.00000000 0.24782261 1.00000000
1.00000000 0.24782261 1.00000000
1.00000000 0.24782261 1.00000000
1.00000000 0.24782261 1.00000000
0.00000000 0.53533633 1.00000000
0.07525886 0.53533633 1.00000000
0.24782261 0.53533633 1.00000000
0.53533633 0.53533633 1.00000000
1.00000000 0.53533633 1.00000000
1.00000000 0.53533633 1.00000000
1.00000000 0.53533633 1.00000000
1.00000000 0.53533633 1.00000000
1.00000000 0.53533633 1.00000000
0.00000000 1.00000000 1.00000000
0.07525886 1.00000000 1.00000000
0.24782261 1.00000000 1.00000000
0.53533633 1.00000000 1.00000000
1.00000000 1.00000000 1.00000000
1.00000000 1.00000000 1.00000000
1.00000000 1.00000000 1.00000000
1.00000000 1.00000000 1.00000000
1.00000000 1.00000000 1.00000000
0.00000000 1.00000000 1.00000000
0.07525886 1.00000000 1.00000000
0.24782261 1.00000000 1.00000000
0.53533633 1.00000000 1.00000000
1.00000000 1.00000000 1.00000000
1.00000000 1.00000000 1.00000000
1.00000000 1.00000000 1.00000000
1.00000000 1.00000000 1.00000000
1.00000000 1.00000000 1.00000000
0.00000000 1.00000000 1.00000000
0.07525886 1.00000000 1.00000000
0.24782261 1.00000000 1.00000000
0.53533633 1.00000000 1.00000000
1.00000000 1.00000000 1.00000000
1.00000000 1.00000000 1.00000000
1.00000000 1.00000000 1.00000000
1.00000000 1.00000000 1.00000000
1.00000000 1.00000000 1.00000000
0.00000000 1.00000000 1.00000000
0.07525886 1.00000000 1.00000000
0.24782261 1.00000000 1.00000000
0.53533633 1.00000000 1.00000000
1.00000000 1.00000000 1.00000000
1.00000000 1.00000000 1.00000000
1.00000000 1.00000000 1.00000000
1.00000000 1.00000000 1.00000000
1.00000000 1.00000000 1.00000000
0.00000000 1.00000000 1.00000000
0.07525886 1.00000000 1.00000000
0.24782261 1.00000000 1.00000000
0.53533633 1.00000000 1.00000000
1.00000000 1.00000000 1.00000000
1.00000000 1.00000000 1.00000000
1.00000000 1.00000000 1.00000000
1.00000000 1.00000000 1.00000000
1.00000000 1.00000000 1.00000000
