packages/ingest-daemon/Resources/LUTs/red_ipp2_rec709.cube
LUT_3D_SIZE 33
0.00000000 0.00000000 0.00000000
0.01091329 0.00000000 0.00000000
0.02595472 0.00000000 0.00000000
0.04668584 0.00000000 0.00000000
0.07525886 0.00000000 0.00000000
0.11174320 0.00000000 0.00000000
0.15190325 0.00000000 0.00000000
0.19690966 0.00000000 0.00000000
0.24782261 0.00000000 0.00000000
0.30577994 0.00000000 0.00000000
0.37204088 0.00000000 0.00000000
0.44802278 0.00000000 0.00000000
0.53533633 0.00000000 0.00000000
0.63582255 0.00000000 0.00000000
0.75159324 0.00000000 0.00000000
0.88507628 0.00000000 0.00000000
1.00000000 0.00000000 0.00000000
1.00000000 0.00000000 0.00000000
1.00000000 0.00000000 0.00000000
1.00000000 0.00000000 0.00000000
1.00000000 0.00000000 0.00000000
1.00000000 0.00000000 0.00000000
1.00000000 0.00000000 0.00000000
1.00000000 0.00000000 0.00000000
1.00000000 0.00000000 0.00000000
1.00000000 0.00000000 0.00000000
1.00000000 0.00000000 0.00000000
1.00000000 0.00000000 0.00000000
1.00000000 0.00000000 0.00000000
1.00000000 0.00000000 0.00000000
1.00000000 0.00000000 0.00000000
1.00000000 0.00000000 0.00000000
1.00000000 0.00000000 0.00000000
0.00000000 0.01091329 0.00000000
0.01091329 0.01091329 0.00000000
0.02595472 0.01091329 0.00000000
0.04668584 0.01091329 0.00000000
0.07525886 0.01091329 0.00000000
0.11174320 0.01091329 0.00000000
0.15190325 0.01091329 0.00000000
0.19690966 0.01091329 0.00000000
0.24782261 0.01091329 0.00000000
0.30577994 0.01091329 0.00000000
0.37204088 0.01091329 0.00000000
0.44802278 0.01091329 0.00000000
0.53533633 0.01091329 0.00000000
0.63582255 0.01091329 0.00000000
0.75159324 0.01091329 0.00000000
0.88507628 0.01091329 0.00000000
1.00000000 0.01091329 0.00000000
1.00000000 0.01091329 0.00000000
1.00000000 0.01091329 0.00000000
1.00000000 0.01091329 0.00000000
1.00000000 0.01091329 0.00000000
1.00000000 0.01091329 0.00000000
1.00000000 0.01091329 0.00000000
1.00000000 0.01091329 0.00000000
1.00000000 0.01091329 0.00000000
1.00000000 0.01091329 0.00000000
1.00000000 0.01091329 0.00000000
1.00000000 0.01091329 0.00000000
1.00000000 0.01091329 0.00000000
1.00000000 0.01091329 0.00000000
1.00000000 0.01091329 0.00000000
1.00000000 0.01091329 0.00000000
1.00000000 0.01091329 0.00000000
0.00000000 0.02595472 0.00000000
0.01091329 0.02595472 0.00000000
0.02595472 0.02595472 0.00000000
0.04668584 0.02595472 0.00000000
0.07525886 0.02595472 0.00000000
0.11174320 0.02595472 0.00000000
0.15190325 0.02595472 0.00000000
0.19690966 0.02595472 0.00000000
0.24782261 0.02595472 0.00000000
0.30577994 0.02595472 0.00000000
0.37204088 0.02595472 0.00000000
0.44802278 0.02595472 0.00000000
0.53533633 0.02595472 0.00000000
0.63582255 0.02595472 0.00000000
0.75159324 0.02595472 0.00000000
0.88507628 0.02595472 0.00000000
1.00000000 0.02595472 0.00000000
1.00000000 0.02595472 0.00000000
1.00000000 0.02595472 0.00000000
1.00000000 0.02595472 0.00000000
1.00000000 0.02595472 0.00000000
1.00000000 0.02595472 0.00000000
1.00000000 0.02595472 0.00000000
1.00000000 0.02595472 0.00000000
1.00000000 0.02595472 0.00000000
1.00000000 0.02595472 0.00000000
1.00000000 0.02595472 0.00000000
1.00000000 0.02595472 0.00000000
1.00000000 0.02595472 0.00000000
1.00000000 0.02595472 0.00000000
1.00000000 0.02595472 0.00000000
1.00000000 0.02595472 0.00000000
1.00000000 0.02595472 0.00000000
0.00000000 0.04668584 0.00000000
0.01091329 0.04668584 0.00000000
0.02595472 0.04668584 0.00000000
0.04668584 0.04668584 0.00000000
0.07525886 0.04668584 0.00000000
0.11174320 0.04668584 0.00000000
0.15190325 0.04668584 0.00000000
0.19690966 0.04668584 0.00000000
0.24782261 0.04668584 0.00000000
0.30577994 0.04668584 0.00000000
0.37204088 0.04668584 0.00000000
0.44802278 0.04668584 0.00000000
0.53533633 0.04668584 0.00000000
0.63582255 0.04668584 0.00000000
0.75159324 0.04668584 0.00000000
0.88507628 0.04668584 0.00000000
1.00000000 0.04668584 0.00000000
1.00000000 0.04668584 0.00000000
1.00000000 0.04668584 0.00000000
1.00000000 0.04668584 0.00000000
1.00000000 0.04668584 0.00000000
1.00000000 0.04668584 0.00000000
1.00000000 0.04668584 0.00000000
1.00000000 0.04668584 0.00000000
1.00000000 0.04668584 0.00000000
1.00000000 0.04668584 0.00000000
1.00000000 0.04668584 0.00000000
1.00000000 0.04668584 0.00000000
1.00000000 0.04668584 0.00000000
1.00000000 0.04668584 0.00000000
1.00000000 0.04668584 0.00000000
1.00000000 0.04668584 0.00000000
1.00000000 0.04668584 0.00000000
0.00000000 0.07525886 0.00000000
0.01091329 0.07525886 0.00000000
0.02595472 0.07525886 0.00000000
0.04668584 0.07525886 0.00000000
0.07525886 0.07525886 0.00000000
0.11174320 0.07525886 0.00000000
0.15190325 0.07525886 0.00000000
0.19690966 0.07525886 0.00000000
0.24782261 0.07525886 0.00000000
0.30577994 0.07525886 0.00000000
0.37204088 0.07525886 0.00000000
0.44802278 0.07525886 0.00000000
0.53533633 0.07525886 0.00000000
0.63582255 0.07525886 0.00000000
0.75159324 0.07525886 0.00000000
0.88507628 0.07525886 0.00000000
1.00000000 0.07525886 0.00000000
1.00000000 0.07525886 0.00000000
1.00000000 0.07525886 0.00000000
1.00000000 0.07525886 0.00000000
1.00000000 0.07525886 0.00000000
1.00000000 0.07525886 0.00000000
1.00000000 0.07525886 0.00000000
1.00000000 0.07525886 0.00000000
1.00000000 0.07525886 0.00000000
1.00000000 0.07525886 0.00000000
1.00000000 0.07525886 0.00000000
1.00000000 0.07525886 0.00000000
1.00000000 0.07525886 0.00000000
1.00000000 0.07525886 0.00000000
1.00000000 0.07525886 0.00000000
1.00000000 0.07525886 0.00000000
1.00000000 0.07525886 0.00000000
0.00000000 0.11174320 0.00000000
0.01091329 0.11174320 0.00000000
0.02595472 0.11174320 0.00000000
0.04668584 0.11174320 0.00000000
0.07525886 0.11174320 0.00000000
0.11174320 0.11174320 0.00000000
0.15190325 0.11174320 0.00000000
0.19690966 0.11174320 0.00000000
0.24782261 0.11174320 0.00000000
0.30577994 0.11174320 0.00000000
0.37204088 0.11174320 0.00000000
0.44802278 0.11174320 0.00000000
0.53533633 0.11174320 0.00000000
0.63582255 0.11174320 0.00000000
0.75159324 0.11174320 0.00000000
0.88507628 0.11174320 0.00000000
1.00000000 0.11174320 0.00000000
1.00000000 0.11174320 0.00000000
1.00000000 0.11174320 0.00000000
1.00000000 0.11174320 0.00000000
1.00000000 0.11174320 0.00000000
1.00000000 0.11174320 0.00000000
1.00000000 0.11174320 0.00000000
1.00000000 0.11174320 0.00000000
1.00000000 0.11174320 0.00000000
1.00000000 0.11174320 0.00000000
1.00000000 0.11174320 0.00000000
1.00000000 0.11174320 0.00000000
1.00000000 0.11174320 0.00000000
1.00000000 0.11174320 0.00000000
1.00000000 0.11174320 0.00000000
1.00000000 0.11174320 0.00000000
1.00000000 0.11174320 0.00000000
0.00000000 0.15190325 0.00000000
0.01091329 0.15190325 0.00000000
0.02595472 0.15190325 0.00000000
0.04668584 0.15190325 0.00000000
0.07525886 0.15190325 0.00000000
0.11174320 0.15190325 0.00000000
0.15190325 0.15190325 0.00000000
0.19690966 0.15190325 0.00000000
0.24782261 0.15190325 0.00000000
0.30577994 0.15190325 0.00000000
0.37204088 0.15190325 0.00000000
0.44802278 0.15190325 0.00000000
0.53533633 0.15190325 0.00000000
0.63582255 0.15190325 0.00000000
0.75159324 0.15190325 0.00000000
0.88507628 0.15190325 0.00000000
1.00000000 0.15190325 0.00000000
1.00000000 0.15190325 0.00000000
1.00000000 0.15190325 0.00000000
1.00000000 0.15190325 0.00000000
1.00000000 0.15190325 0.00000000
1.00000000 0.15190325 0.00000000
1.00000000 0.15190325 0.00000000
1.00000000 0.15190325 0.00000000
1.00000000 0.15190325 0.00000000
1.00000000 0.15190325 0.00000000
1.00000000 0.15190325 0.00000000
1.00000000 0.15190325 0.00000000
1.00000000 0.15190325 0.00000000
1.00000000 0.15190325 0.00000000
1.00000000 0.15190325 0.00000000
1.00000000 0.15190325 0.00000000
1.00000000 0.15190325 0.00000000
0.00000000 0.19690966 0.00000000
0.01091329 0.19690966 0.00000000
0.02595472 0.19690966 0.00000000
0.04668584 0.19690966 0.00000000
0.07525886 0.19690966 0.00000000
0.11174320 0.19690966 0.00000000
0.15190325 0.19690966 0.00000000
0.19690966 0.19690966 0.00000000
0.24782261 0.19690966 0.00000000
0.30577994 0.19690966 0.00000000
0.37204088 0.19690966 0.00000000
0.44802278 0.19690966 0.00000000
0.53533633 0.19690966 0.00000000
0.63582255 0.19690966 0.00000000
0.75159324 0.19690966 0.00000000
0.88507628 0.19690966 0.00000000
1.00000000 0.19690966 0.00000000
1.00000000 0.19690966 0.00000000
1.00000000 0.19690966 0.00000000
1.00000000 0.19690966 0.00000000
1.00000000 0.19690966 0.00000000
1.00000000 0.19690966 0.00000000
1.00000000 0.19690966 0.00000000
1.00000000 0.19690966 0.00000000
1.00000000 0.19690966 0.00000000
1.00000000 0.19690966 0.00000000
1.00000000 0.19690966 0.00000000
1.00000000 0.19690966 0.00000000
1.00000000 0.19690966 0.00000000
1.00000000 0.19690966 0.00000000
1.00000000 0.19690966 0.00000000
1.00000000 0.19690966 0.00000000
1.00000000 0.19690966 0.00000000
0.00000000 0.24782261 0.00000000
0.01091329 0.24782261 0.00000000
0.02595472 0.24782261 0.00000000
0.04668584 0.24782261 0.00000000
0.07525886 0.24782261 0.00000000
0.11174320 0.24782261 0.00000000
0.15190325 0.24782261 0.00000000
0.19690966 0.24782261 0.00000000
0.24782261 0.24782261 0.00000000
0.30577994 0.24782261 0.00000000
0.37204088 0.24782261 0.00000000
0.44802278 0.24782261 0.00000000
0.53533633 0.24782261 0.00000000
0.63582255 0.24782261 0.00000000
0.75159324 0.24782261 0.00000000
0.88507628 0.24782261 0.00000000
1.00000000 0.24782261 0.00000000
1.00000000 0.24782261 0.00000000
1.00000000 0.24782261 0.00000000
1.00000000 0.24782261 0.00000000
1.00000000 0.24782261 0.00000000
1.00000000 0.24782261 0.00000000
1.00000000 0.24782261 0.00000000
1.00000000 0.24782261 0.00000000
1.00000000 0.24782261 0.00000000
1.00000000 0.24782261 0.00000000
1.00000000 0.24782261 0.00000000
1.00000000 0.24782261 0.00000000
1.00000000 0.24782261 0.00000000
1.00000000 0.24782261 0.00000000
1.00000000 0.24782261 0.00000000
1.00000000 0.24782261 0.00000000
1.00000000 0.24782261 0.00000000
0.00000000 0.30577994 0.00000000
0.01091329 0.30577994 0.00000000
0.02595472 0.30577994 0.00000000
0.04668584 0.30577994 0.00000000
0.07525886 0.30577994 0.00000000
0.11174320 0.30577994 0.00000000
0.15190325 0.30577994 0.00000000
0.19690966 0.30577994 0.00000000
0.24782261 0.30577994 0.00000000
0.30577994 0.30577994 0.00000000
0.37204088 0.30577994 0.00000000
0.44802278 0.30577994 0.00000000
0.53533633 0.30577994 0.00000000
0.63582255 0.30577994 0.00000000
0.75159324 0.30577994 0.00000000
0.88507628 0.30577994 0.00000000
1.00000000 0.30577994 0.00000000
1.00000000 0.30577994 0.00000000
1.00000000 0.30577994 0.00000000
1.00000000 0.30577994 0.00000000
1.00000000 0.30577994 0.00000000
1.00000000 0.30577994 0.00000000
1.00000000 0.30577994 0.00000000
1.00000000 0.30577994 0.00000000
1.00000000 0.30577994 0.00000000
1.00000000 0.30577994 0.00000000
1.00000000 0.30577994 0.00000000
1.00000000 0.30577994 0.00000000
1.00000000 0.30577994 0.00000000
1.00000000 0.30577994 0.00000000
1.00000000 0.30577994 0.00000000
1.00000000 0.30577994 0.00000000
1.00000000 0.30577994 0.00000000
0.00000000 0.37204088 0.00000000
0.01091329 0.37204088 0.00000000
0.02595472 0.37204088 0.00000000
0.04668584 0.37204088 0.00000000
0.07525886 0.37204088 0.00000000
0.11174320 0.37204088 0.00000000
0.15190325 0.37204088 0.00000000
0.19690966 0.37204088 0.00000000
0.24782261 0.37204088 0.00000000
0.30577994 0.37204088 0.00000000
0.37204088 0.37204088 0.00000000
0.44802278 0.37204088 0.00000000
0.53533633 0.37204088 0.00000000
0.63582255 0.37204088 0.00000000
0.75159324 0.37204088 0.00000000
0.88507628 0.37204088 0.00000000
1.00000000 0.37204088 0.00000000
1.00000000 0.37204088 0.00000000
1.00000000 0.37204088 0.00000000
1.00000000 0.37204088 0.00000000
1.00000000 0.37204088 0.00000000
1.00000000 0.37204088 0.00000000
1.00000000 0.37204088 0.00000000
1.00000000 0.37204088 0.00000000
1.00000000 0.37204088 0.00000000
1.00000000 0.37204088 0.00000000
1.00000000 0.37204088 0.00000000
1.00000000 0.37204088 0.00000000
1.00000000 0.37204088 0.00000000
1.00000000 0.37204088 0.00000000
1.00000000 0.37204088 0.00000000
1.00000000 0.37204088 0.00000000
1.00000000 0.37204088 0.00000000
0.00000000 0.44802278 0.00000000
0.01091329 0.44802278 0.00000000
0.02595472 0.44802278 0.00000000
0.04668584 0.44802278 0.00000000
0.07525886 0.44802278 0.00000000
0.11174320 0.44802278 0.00000000
0.15190325 0.44802278 0.00000000
0.19690966 0.44802278 0.00000000
0.24782261 0.44802278 0.00000000
0.30577994 0.44802278 0.00000000
0.37204088 0.44802278 0.00000000
0.44802278 0.44802278 0.00000000
0.53533633 0.44802278 0.00000000
0.63582255 0.44802278 0.00000000
0.75159324 0.44802278 0.00000000
0.88507628 0.44802278 0.00000000
1.00000000 0.44802278 0.00000000
1.00000000 0.44802278 0.00000000
1.00000000 0.44802278 0.00000000
1.00000000 0.44802278 0.00000000
1.00000000 0.44802278 0.00000000
1.00000000 0.44802278 0.00000000
1.00000000 0.44802278 0.00000000
1.00000000 0.44802278 0.00000000
1.00000000 0.44802278 0.00000000
1.00000000 0.44802278 0.00000000
1.00000000 0.44802278 0.00000000
1.00000000 0.44802278 0.00000000
1.00000000 0.44802278 0.00000000
1.00000000 0.44802278 0.00000000
1.00000000 0.44802278 0.00000000
1.00000000 0.44802278 0.00000000
1.00000000 0.44802278 0.00000000
0.00000000 0.53533633 0.00000000
0.01091329 0.53533633 0.00000000
0.02595472 0.53533633 0.00000000
0.04668584 0.53533633 0.00000000
0.07525886 0.53533633 0.00000000
0.11174320 0.53533633 0.00000000
0.15190325 0.53533633 0.00000000
0.19690966 0.53533633 0.00000000
0.24782261 0.53533633 0.00000000
0.30577994 0.53533633 0.00000000
0.37204088 0.53533633 0.00000000
0.44802278 0.53533633 0.00000000
0.53533633 0.53533633 0.00000000
0.63582255 0.53533633 0.00000000
0.75159324 0.53533633 0.00000000
0.88507628 0.53533633 0.00000000
1.00000000 0.53533633 0.00000000
1.00000000 0.53533633 0.00000000
1.00000000 0.53533633 0.00000000
1.00000000 0.53533633 0.00000000
1.00000000 0.53533633 0.00000000
1.00000000 0.53533633 0.00000000
1.00000000 0.53533633 0.00000000
1.00000000 0.53533633 0.00000000
1.00000000 0.53533633 0.00000000
1.00000000 0.53533633 0.00000000
1.00000000 0.53533633 0.00000000
1.00000000 0.53533633 0.00000000
1.00000000 0.53533633 0.00000000
1.00000000 0.53533633 0.00000000
1.00000000 0.53533633 0.00000000
1.00000000 0.53533633 0.00000000
1.00000000 0.53533633 0.00000000
0.00000000 0.63582255 0.00000000
0.01091329 0.63582255 0.00000000
0.02595472 0.63582255 0.00000000
0.04668584 0.63582255 0.00000000
0.07525886 0.63582255 0.00000000
0.11174320 0.63582255 0.00000000
0.15190325 0.63582255 0.00000000
0.19690966 0.63582255 0.00000000
0.24782261 0.63582255 0.00000000
0.30577994 0.63582255 0.00000000
0.37204088 0.63582255 0.00000000
0.44802278 0.63582255 0.00000000
0.53533633 0.63582255 0.00000000
0.63582255 0.63582255 0.00000000
0.75159324 0.63582255 0.00000000
0.88507628 0.63582255 0.00000000
1.00000000 0.63582255 0.00000000
1.00000000 0.63582255 0.00000000
1.00000000 0.63582255 0.00000000
1.00000000 0.63582255 0.00000000
1.00000000 0.63582255 0.00000000
1.00000000 0.63582255 0.00000000
1.00000000 0.63582255 0.00000000
1.00000000 0.63582255 0.00000000
1.00000000 0.63582255 0.00000000
1.00000000 0.63582255 0.00000000
1.00000000 0.63582255 0.00000000
1.00000000 0.63582255 0.00000000
1.00000000 0.63582255 0.00000000
1.00000000 0.63582255 0.00000000
1.00000000 0.63582255 0.00000000
1.00000000 0.63582255 0.00000000
1.00000000 0.63582255 0.00000000
0.00000000 0.75159324 0.00000000
0.01091329 0.75159324 0.00000000
0.02595472 0.75159324 0.00000000
0.04668584 0.75159324 0.00000000
0.07525886 0.75159324 0.00000000
0.11174320 0.75159324 0.00000000
0.15190325 0.75159324 0.00000000
0.19690966 0.75159324 0.00000000
0.24782261 0.75159324 0.00000000
0.30577994 0.75159324 0.00000000
0.37204088 0.75159324 0.00000000
0.44802278 0.75159324 0.00000000
0.53533633 0.75159324 0.00000000
0.63582255 0.75159324 0.00000000
0.75159324 0.75159324 0.00000000
0.88507628 0.75159324 0.00000000
1.00000000 0.75159324 0.00000000
1.00000000 0.75159324 0.00000000
1.00000000 0.75159324 0.00000000
1.00000000 0.75159324 0.00000000
1.00000000 0.75159324 0.00000000
1.00000000 0.75159324 0.00000000
1.00000000 0.75159324 0.00000000
1.00000000 0.75159324 0.00000000
1.00000000 0.75159324 0.00000000
1.00000000 0.75159324 0.00000000
1.00000000 0.75159324 0.00000000
1.00000000 0.75159324 0.00000000
1.00000000 0.75159324 0.00000000
1.00000000 0.75159324 0.00000000
1.00000000 0.75159324 0.00000000
1.00000000 0.75159324 0.00000000
1.00000000 0.75159324 0.00000000
0.00000000 0.88507628 0.00000000
0.01091329 0.88507628 0.00000000
0.02595472 0.88507628 0.00000000
0.04668584 0.88507628 0.00000000
0.07525886 0.88507628 0.00000000
0.11174320 0.88507628 0.00000000
0.15190325 0.88507628 0.00000000
0.19690966 0.88507628 0.00000000
0.24782261 0.88507628 0.00000000
0.30577994 0.88507628 0.00000000
0.37204088 0.88507628 0.00000000
0.44802278 0.88507628 0.00000000
0.53533633 0.88507628 0.00000000
0.63582255 0.88507628 0.00000000
0.75159324 0.88507628 0.00000000
0.88507628 0.88507628 0.00000000
1.00000000 0.88507628 0.00000000
1.00000000 0.88507628 0.00000000
1.00000000 0.88507628 0.00000000
1.00000000 0.88507628 0.00000000
1.00000000 0.88507628 0.00000000
1.00000000 0.88507628 0.00000000
1.00000000 0.88507628 0.00000000
1.00000000 0.88507628 0.00000000
1.00000000 0.88507628 0.00000000
1.00000000 0.88507628 0.00000000
1.00000000 0.88507628 0.00000000
1.00000000 0.88507628 0.00000000
1.00000000 0.88507628 0.00000000
1.00000000 0.88507628 0.00000000
1.00000000 0.88507628 0.00000000
1.00000000 0.88507628 0.00000000
1.00000000 0.88507628 0.00000000
0.00000000 1.00000000 0.00000000
0.01091329 1.00000000 0.00000000
0.02595472 1.00000000 0.00000000
0.04668584 1.00000000 0.00000000
0.07525886 1.00000000 0.00000000
0.11174320 1.00000000 0.00000000
0.15190325 1.00000000 0.00000000
0.19690966 1.00000000 0.00000000
0.24782261 1.00000000 0.00000000
0.30577994 1.00000000 0.00000000
0.37204088 1.00000000 0.00000000
0.44802278 1.00000000 0.00000000
0.53533633 1.00000000 0.00000000
0.63582255 1.00000000 0.00000000
0.75159324 1.00000000 0.00000000
0.88507628 1.00000000 0.00000000
1.00000000 1.00000000 0.00000000
1.00000000 1.00000000 0.00000000
1.00000000 1.00000000 0.00000000
1.00000000 1.00000000 0.00000000
1.00000000 1.00000000 0.00000000
1.00000000 1.00000000 0.00000000
1.00000000 1.00000000 0.00000000
1.00000000 1.00000000 0.00000000
1.00000000 1.00000000 0.00000000
1.00000000 1.00000000 0.00000000
1.00000000 1.00000000 0.00000000
1.00000000 1.00000000 0.00000000
1.00000000 1.00000000 0.00000000
1.00000000 1.00000000 0.00000000
1.00000000 1.00000000 0.00000000
1.00000000 1.00000000 0.00000000
1.00000000 1.00000000 0.00000000
0.00000000 1.00000000 0.00000000
0.01091329 1.00000000 0.00000000
0.02595472 1.00000000 0.00000000
0.04668584 1.00000000 0.00000000
0.07525886 1.00000000 0.00000000
0.11174320 1.00000000 0.00000000
0.15190325 1.00000000 0.00000000
0.19690966 1.00000000 0.00000000
0.24782261 1.00000000 0.00000000
0.30577994 1.00000000 0.00000000
0.37204088 1.00000000 0.00000000
0.44802278 1.00000000 0.00000000
0.53533633 1.00000000 0.00000000
0.63582255 1.00000000 0.00000000
0.75159324 1.00000000 0.00000000
0.88507628 1.00000000 0.00000000
1.00000000 1.00000000 0.00000000
1.00000000 1.00000000 0.00000000
1.00000000 1.00000000 0.00000000
1.00000000 1.00000000 0.00000000
1.00000000 1.00000000 0.00000000
1.00000000 1.00000000 0.00000000
1.00000000 1.00000000 0.00000000
1.00000000 1.00000000 0.00000000
1.00000000 1.00000000 0.00000000
1.00000000 1.00000000 0.00000000
1.00000000 1.00000000 0.00000000
1.00000000 1.00000000 0.00000000
1.00000000 1.00000000 0.00000000
1.00000000 1.00000000 0.00000000
1.00000000 1.00000000 0.00000000
1.00000000 1.00000000 0.00000000
1.00000000 1.00000000 0.00000000
0.00000000 1.00000000 0.00000000
0.01091329 1.00000000 0.00000000
0.02595472 1.00000000 0.00000000
0.04668584 1.00000000 0.00000000
0.07525886 1.00000000 0.00000000
0.11174320 1.00000000 0.00000000
0.15190325 1.00000000 0.00000000
0.19690966 1.00000000 0.00000000
0.24782261 1.00000000 0.00000000
0.30577994 1.00000000 0.00000000
0.37204088 1.00000000 0.00000000
0.44802278 1.00000000 0.00000000
0.53533633 1.00000000 0.00000000
0.63582255 1.00000000 0.00000000
0.75159324 1.00000000 0.00000000
0.88507628 1.00000000 0.00000000
1.00000000 1.00000000 0.00000000
1.00000000 1.00000000 0.00000000
1.00000000 1.00000000 0.00000000
1.00000000 1.00000000 0.00000000
1.00000000 1.00000000 0.00000000
1.00000000 1.00000000 0.00000000
1.00000000 1.00000000 0.00000000
1.00000000 1.00000000 0.00000000
1.00000000 1.00000000 0.00000000
1.00000000 1.00000000 0.00000000
1.00000000 1.00000000 0.00000000
1.00000000 1.00000000 0.00000000
1.00000000 1.00000000 0.00000000
1.00000000 1.00000000 0.00000000
1.00000000 1.00000000 0.00000000
1.00000000 1.00000000 0.00000000
1.00000000 1.00000000 0.00000000
0.00000000 1.00000000 0.00000000
0.01091329 1.00000000 0.00000000
0.02595472 1.00000000 0.00000000
0.04668584 1.00000000 0.00000000
0.07525886 1.00000000 0.00000000
0.11174320 1.00000000 0.00000000
0.15190325 1.00000000 0.00000000
0.19690966 1.00000000 0.00000000
0.24782261 1.00000000 0.00000000
0.30577994 1.00000000 0.00000000
0.37204088 1.00000000 0.00000000
0.44802278 1.00000000 0.00000000
0.53533633 1.00000000 0.00000000
0.63582255 1.00000000 0.00000000
0.75159324 1.00000000 0.00000000
0.88507628 1.00000000 0.00000000
1.00000000 1.00000000 0.00000000
1.00000000 1.00000000 0.00000000
1.00000000 1.00000000 0.00000000
1.00000000 1.00000000 0.00000000
1.00000000 1.00000000 0.00000000
1.00000000 1.00000000 0.00000000
1.00000000 1.00000000 0.00000000
1.00000000 1.00000000 0.00000000
1.00000000 1.00000000 0.00000000
1.00000000 1.00000000 0.00000000
1.00000000 1.00000000 0.00000000
1.00000000 1.00000000 0.00000000
1.00000000 1.00000000 0.00000000
1.00000000 1.00000000 0.00000000
1.00000000 1.00000000 0.00000000
1.00000000 1.00000000 0.00000000
1.00000000 1.00000000 0.00000000
0.00000000 1.00000000 0.00000000
0.01091329 1.00000000 0.00000000
0.02595472 1.00000000 0.00000000
0.04668584 1.00000000 0.00000000
0.07525886 1.00000000 0.00000000
0.11174320 1.00000000 0.00000000
0.15190325 1.00000000 0.00000000
0.19690966 1.00000000 0.00000000
0.24782261 1.00000000 0.00000000
0.30577994 1.00000000 0.00000000
0.37204088 1.00000000 0.00000000
0.44802278 1.00000000 0.00000000
0.53533633 1.00000000 0.00000000
0.63582255 1.00000000 0.00000000
0.75159324 1.00000000 0.00000000
0.88507628 1.00000000 0.00000000
1.00000000 1.00000000 0.00000000
1.00000000 1.00000000 0.00000000
1.00000000 1.00000000 0.00000000
1.00000000 1.00000000 0.00000000
1.00000000 1.00000000 0.00000000
1.00000000 1.00000000 0.00000000
1.00000000 1.00000000 0.00000000
1.00000000 1.00000000 0.00000000
1.00000000 1.00000000 0.00000000
1.00000000 1.00000000 0.00000000
1.00000000 1.00000000 0.00000000
1.00000000 1.00000000 0.00000000
1.00000000 1.00000000 0.00000000
1.00000000 1.00000000 0.00000000
1.00000000 1.00000000 0.00000000
1.00000000 1.00000000 0.00000000
1.00000000 1.00000000 0.00000000
0.00000000 1.00000000 0.00000000
0.01091329 1.00000000 0.00000000
0.02595472 1.00000000 0.00000000
0.04668584 1.00000000 0.00000000
0.07525886 1.00000000 0.00000000
0.11174320 1.00000000 0.00000000
0.15190325 1.00000000 0.00000000
0.19690966 1.00000000 0.00000000
0.24782261 1.00000000 0.00000000
0.30577994 1.00000000 0.00000000
0.37204088 1.00000000 0.00000000
0.44802278 1.00000000 0.00000000
0.53533633 1.00000000 0.00000000
0.63582255 1.00000000 0.00000000
0.75159324 1.00000000 0.00000000
0.88507628 1.00000000 0.00000000
1.00000000 1.00000000 0.00000000
1.00000000 1.00000000 0.00000000
1.00000000 1.00000000 0.00000000
1.00000000 1.00000000 0.00000000
1.00000000 1.00000000 0.00000000
1.00000000 1.00000000 0.00000000
1.00000000 1.00000000 0.00000000
1.00000000 1.00000000 0.00000000
1.00000000 1.00000000 0.00000000
1.00000000 1.00000000 0.00000000
1.00000000 1.00000000 0.00000000
1.00000000 1.00000000 0.00000000
1.00000000 1.00000000 0.00000000
1.00000000 1.00000000 0.00000000
1.00000000 1.00000000 0.00000000
1.00000000 1.00000000 0.00000000
1.00000000 1.00000000 0.00000000
